<?xml version="1.0" encoding="UTF-8"?>
<map version="1.10" tiledversion="1.11.2" orientation="orthogonal" renderorder="right-down" width="70" height="80" tilewidth="16" tileheight="16" infinite="0" nextlayerid="27" nextobjectid="2608">
 <tileset firstgid="1" name="Dungeon_Tileset" tilewidth="16" tileheight="16" tilecount="100" columns="10">
  <image source="Dungeon_Tileset.png" width="160" height="160"/>
  <tile id="0">
   <objectgroup draworder="index" id="2">
    <object id="1" type="colider" x="0" y="0" width="16" height="16"/>
   </objectgroup>
  </tile>
  <tile id="1">
   <objectgroup>
    <object id="1" type="colider" x="0" y="0" width="16" height="8"/>
   </objectgroup>
  </tile>
  <tile id="2">
   <objectgroup>
    <object id="1" type="colider" x="0" y="0" width="16" height="8"/>
   </objectgroup>
  </tile>
  <tile id="3">
   <objectgroup>
    <object id="1" type="colider" x="0" y="0" width="16" height="8"/>
   </objectgroup>
  </tile>
  <tile id="4">
   <objectgroup draworder="index" id="2">
    <object id="1" type="colider" x="0" y="0" width="16" height="8"/>
   </objectgroup>
  </tile>
  <tile id="5">
   <objectgroup>
    <object id="1" type="colider" x="0" y="0" width="16" height="16"/>
   </objectgroup>
  </tile>
  <tile id="10">
   <objectgroup>
    <object id="1" type="colider" x="0" y="0" width="16" height="16"/>
   </objectgroup>
  </tile>
  <tile id="15">
   <objectgroup>
    <object id="1" type="colider" x="0" y="0" width="16" height="16"/>
   </objectgroup>
  </tile>
  <tile id="20">
   <objectgroup>
    <object id="1" type="colider" x="0" y="0" width="16" height="16"/>
   </objectgroup>
  </tile>
  <tile id="25">
   <objectgroup>
    <object id="1" type="colider" x="0" y="0" width="16" height="16"/>
   </objectgroup>
  </tile>
  <tile id="30">
   <objectgroup>
    <object id="1" type="colider" x="0" y="0" width="16" height="16"/>
   </objectgroup>
  </tile>
  <tile id="35">
   <objectgroup>
    <object id="1" type="colider" x="0" y="0" width="16" height="16"/>
   </objectgroup>
  </tile>
  <tile id="36">
   <properties>
    <property name="open" type="bool" value="false"/>
   </properties>
   <objectgroup>
    <object id="1" type="colider" x="0" y="0" width="16" height="8"/>
   </objectgroup>
  </tile>
  <tile id="37">
   <properties>
    <property name="open" type="bool" value="false"/>
   </properties>
   <objectgroup draworder="index" id="2">
    <object id="1" type="colider" x="0" y="0" width="16" height="8"/>
   </objectgroup>
  </tile>
  <tile id="40">
   <objectgroup>
    <object id="1" type="colider" x="0" y="0" width="16" height="16"/>
   </objectgroup>
  </tile>
  <tile id="41">
   <objectgroup>
    <object id="1" type="colider" x="0" y="0" width="16" height="16"/>
   </objectgroup>
  </tile>
  <tile id="42">
   <objectgroup>
    <object id="1" type="colider" x="0" y="0" width="16" height="16"/>
   </objectgroup>
  </tile>
  <tile id="43">
   <objectgroup>
    <object id="1" type="colider" x="0" y="0" width="16" height="16"/>
   </objectgroup>
  </tile>
  <tile id="44">
   <objectgroup>
    <object id="1" type="colider" x="0" y="0" width="16" height="16"/>
   </objectgroup>
  </tile>
  <tile id="45">
   <objectgroup>
    <object id="1" type="colider" x="0" y="0" width="16" height="16"/>
   </objectgroup>
  </tile>
  <tile id="46">
   <properties>
    <property name="open" type="bool" value="false"/>
   </properties>
   <objectgroup>
    <object id="1" type="colider" x="5" y="0" width="6" height="16"/>
   </objectgroup>
  </tile>
  <tile id="47">
   <properties>
    <property name="open" type="bool" value="true"/>
   </properties>
   <objectgroup>
    <object id="1" type="colider" x="0" y="0" width="6" height="16"/>
   </objectgroup>
  </tile>
  <tile id="48">
   <properties>
    <property name="open" type="bool" value="true"/>
   </properties>
   <objectgroup>
    <object id="1" type="colider" x="10" y="0" width="6" height="16"/>
   </objectgroup>
  </tile>
  <tile id="49">
   <properties>
    <property name="block" type="bool" value="true"/>
   </properties>
  </tile>
  <tile id="50">
   <objectgroup>
    <object id="1" type="colider" x="0" y="0" width="16" height="16"/>
   </objectgroup>
  </tile>
  <tile id="51">
   <objectgroup>
    <object id="1" type="colider" x="0" y="0" width="16" height="16"/>
   </objectgroup>
  </tile>
  <tile id="52">
   <objectgroup>
    <object id="1" type="colider" x="0" y="0" width="16" height="16"/>
   </objectgroup>
  </tile>
  <tile id="53">
   <objectgroup>
    <object id="1" type="colider" x="0" y="0" width="16" height="16"/>
   </objectgroup>
  </tile>
  <tile id="54">
   <objectgroup>
    <object id="1" type="colider" x="0" y="0" width="16" height="16"/>
   </objectgroup>
  </tile>
  <tile id="55">
   <objectgroup>
    <object id="1" type="colider" x="0" y="0" width="16" height="16"/>
   </objectgroup>
  </tile>
  <tile id="56">
   <properties>
    <property name="open" type="bool" value="false"/>
   </properties>
   <objectgroup draworder="index" id="2">
    <object id="1" type="colider" x="5" y="0" width="6" height="16"/>
   </objectgroup>
  </tile>
  <tile id="57">
   <properties>
    <property name="open" type="bool" value="true"/>
   </properties>
   <objectgroup draworder="index" id="2">
    <object id="1" type="colider" x="0" y="0" width="6" height="16"/>
   </objectgroup>
  </tile>
  <tile id="58">
   <properties>
    <property name="open" type="bool" value="true"/>
   </properties>
   <objectgroup draworder="index" id="2">
    <object id="1" type="colider" x="10" y="0" width="6" height="16"/>
   </objectgroup>
  </tile>
  <tile id="59">
   <properties>
    <property name="block" type="bool" value="true"/>
   </properties>
  </tile>
  <tile id="66">
   <properties>
    <property name="open" type="bool" value="false"/>
   </properties>
   <objectgroup draworder="index" id="2">
    <object id="1" type="colider" x="0" y="0" width="16" height="8"/>
   </objectgroup>
  </tile>
  <tile id="67">
   <properties>
    <property name="open" type="bool" value="false"/>
   </properties>
   <objectgroup draworder="index" id="2">
    <object id="1" type="colider" x="0" y="0" width="16" height="8"/>
   </objectgroup>
  </tile>
  <tile id="80">
   <properties>
    <property name="block" type="bool" value="true"/>
   </properties>
   <objectgroup draworder="index" id="2">
    <object id="1" type="colider" x="2" y="2" width="12" height="12"/>
   </objectgroup>
  </tile>
  <tile id="81">
   <properties>
    <property name="block" type="bool" value="true"/>
   </properties>
   <objectgroup draworder="index" id="2">
    <object id="1" type="colider" x="2" y="2" width="12" height="12"/>
   </objectgroup>
  </tile>
  <tile id="82">
   <properties>
    <property name="block" type="bool" value="true"/>
   </properties>
   <objectgroup draworder="index" id="2">
    <object id="1" type="colider" x="2" y="2" width="12" height="12"/>
   </objectgroup>
  </tile>
  <tile id="83">
   <properties>
    <property name="block" type="bool" value="true"/>
   </properties>
   <objectgroup>
    <object id="1" type="colider" x="2" y="2" width="12" height="12"/>
   </objectgroup>
  </tile>
  <tile id="84">
   <properties>
    <property name="block" type="bool" value="true"/>
   </properties>
   <objectgroup draworder="index" id="2">
    <object id="1" type="colider" x="1" y="2" width="14" height="12"/>
   </objectgroup>
  </tile>
  <tile id="85">
   <properties>
    <property name="block" type="bool" value="true"/>
   </properties>
   <objectgroup draworder="index" id="2">
    <object id="5" type="colider" x="1" y="2" width="14" height="12"/>
   </objectgroup>
  </tile>
  <tile id="93">
   <properties>
    <property name="block" type="bool" value="true"/>
   </properties>
  </tile>
  <tile id="94">
   <properties>
    <property name="block" type="bool" value="true"/>
   </properties>
  </tile>
  <tile id="95">
   <properties>
    <property name="block" type="bool" value="true"/>
   </properties>
  </tile>
  <tile id="96">
   <properties>
    <property name="block" type="bool" value="true"/>
   </properties>
  </tile>
 </tileset>
 <layer id="1" name="background" width="70" height="80">
  <data encoding="csv">
7,8,9,10,7,8,7,8,9,10,7,8,9,9,9,9,9,9,9,9,9,7,7,7,7,7,7,7,7,7,7,7,7,7,7,7,7,7,7,7,7,7,7,7,7,7,7,7,7,7,7,7,7,7,7,7,7,7,7,7,7,7,7,7,7,7,7,8,9,10,
17,18,19,20,17,18,17,18,19,20,7,8,9,19,19,19,19,19,19,19,19,17,17,17,17,17,17,17,17,17,17,17,17,17,17,17,17,17,17,17,17,17,17,17,17,17,17,17,17,17,17,17,17,17,17,17,17,17,17,17,17,17,17,17,17,17,7,8,9,10,
27,28,29,30,27,28,27,28,29,30,7,8,9,29,29,29,29,29,29,29,29,27,27,27,27,27,27,27,27,27,27,27,27,27,27,27,27,27,27,27,27,27,27,27,27,27,27,27,27,27,27,27,27,27,27,27,27,27,27,27,27,27,27,27,27,27,7,8,9,10,
7,7,7,7,7,7,7,7,8,9,10,8,9,10,10,10,10,10,10,10,10,10,10,10,10,10,10,10,10,10,10,10,10,10,10,10,10,10,10,10,10,10,10,10,10,10,10,10,10,10,10,10,10,10,10,10,10,10,10,10,10,10,10,10,10,10,10,10,10,10,
17,17,17,17,17,17,7,8,9,10,10,8,9,10,20,20,20,20,20,20,20,20,20,20,20,20,20,20,20,20,20,20,20,20,20,20,20,20,20,20,20,20,20,20,20,20,20,20,20,20,20,20,70,20,20,20,20,20,20,20,7,8,9,10,10,10,20,20,20,20,
7,7,7,7,7,8,7,8,9,10,10,8,9,10,30,30,30,30,30,30,30,30,30,30,30,30,30,30,30,30,30,30,30,30,30,30,30,30,30,30,30,30,30,30,30,30,30,30,30,30,30,70,70,70,30,30,30,7,8,9,10,10,10,10,20,20,10,10,10,10,
8,9,10,10,10,10,7,8,9,10,10,8,9,10,7,7,8,9,10,27,27,27,27,27,7,8,9,10,10,10,10,10,10,10,10,10,10,10,10,10,10,10,10,10,10,10,10,10,10,10,70,70,70,70,70,20,20,7,7,7,7,8,9,10,30,30,20,20,20,20,
8,9,7,8,9,10,7,8,9,10,8,9,10,7,7,7,7,7,7,7,7,7,7,7,7,7,7,7,7,7,7,7,7,7,7,7,7,7,7,7,7,7,7,7,7,7,7,7,7,70,70,70,70,70,70,70,7,17,17,17,7,7,7,7,7,7,7,8,9,10,
8,9,7,8,9,10,7,8,9,10,8,9,10,17,17,17,17,17,17,17,17,17,17,17,17,17,17,17,17,17,17,17,17,17,17,17,17,17,17,17,17,17,17,17,17,17,17,17,17,17,70,70,70,70,70,17,17,27,27,27,17,17,17,17,17,17,7,7,8,9,
8,9,7,8,9,10,7,8,9,10,8,9,10,27,27,27,27,27,27,27,27,27,27,27,27,27,27,27,27,27,27,27,27,27,27,27,27,27,27,27,27,27,27,27,27,27,27,27,27,27,27,70,70,70,10,10,10,10,7,8,9,10,10,10,10,10,10,10,10,9,
8,9,17,7,8,9,7,8,9,10,8,9,10,9,27,28,7,8,9,10,30,27,7,8,9,10,7,8,9,10,30,27,28,27,7,8,9,10,27,7,8,9,10,8,9,10,10,7,8,9,7,8,70,10,10,20,20,7,7,8,9,10,7,8,9,10,10,10,10,10,
8,9,27,7,8,9,7,8,9,10,8,9,10,9,27,28,17,7,8,9,7,27,7,8,9,10,8,9,10,10,30,28,29,30,7,8,9,10,7,8,9,10,10,8,9,10,20,7,8,9,7,8,9,10,20,30,30,17,7,8,9,7,8,9,10,10,20,20,20,10,
8,9,27,7,8,9,7,8,9,10,8,9,10,19,27,28,27,7,8,9,17,27,17,18,19,20,8,9,10,20,27,28,29,30,7,8,9,10,7,8,9,10,20,8,9,10,30,7,8,9,7,8,9,10,30,7,8,27,7,8,7,8,9,10,10,20,30,30,30,20,
8,9,10,7,8,9,7,8,9,10,8,9,10,29,27,28,29,7,8,9,27,27,27,28,29,30,9,10,10,30,27,28,29,30,7,8,9,10,7,8,9,10,30,8,9,10,30,7,8,9,7,8,9,10,10,7,8,27,7,7,8,9,10,20,20,7,8,9,10,10,
8,9,10,7,8,7,7,8,9,10,8,9,10,9,27,28,29,7,8,9,27,28,29,30,7,8,9,10,20,30,27,28,29,30,7,8,9,10,7,8,9,10,30,8,9,10,30,7,8,9,7,8,9,7,7,7,7,27,7,7,8,7,8,9,10,10,10,10,10,20,
8,9,10,7,7,17,7,8,9,10,8,9,10,9,27,28,29,7,8,9,27,28,29,30,7,8,9,10,30,30,27,28,29,30,7,8,9,10,7,8,9,10,30,8,9,10,30,7,8,9,7,7,7,17,17,17,17,27,7,8,7,8,9,10,20,20,20,10,20,30,
8,9,10,7,17,27,7,8,9,10,8,9,10,9,27,28,29,7,8,7,27,28,29,30,8,9,10,20,29,30,28,29,30,8,7,8,9,10,8,9,10,20,30,9,10,20,30,7,8,9,17,17,17,27,27,27,27,27,7,8,7,8,9,10,30,30,30,20,10,30,
8,9,7,7,27,28,7,8,9,10,10,10,20,9,27,28,29,7,8,17,27,28,29,30,8,9,10,30,29,30,28,29,7,8,9,10,10,10,8,9,10,30,30,9,10,30,30,7,8,9,27,27,27,28,29,30,8,9,7,7,8,9,10,20,28,29,30,30,20,30,
8,9,7,17,27,28,7,8,9,10,20,10,30,9,27,28,29,7,8,27,28,29,30,7,8,9,10,28,29,30,9,10,10,10,10,20,20,20,8,9,10,29,30,9,10,29,30,7,8,9,10,7,8,9,10,7,8,7,8,7,8,7,8,9,10,28,29,30,30,30,
8,9,17,27,28,29,7,8,9,10,30,10,30,9,27,28,29,7,8,27,28,29,30,8,9,10,20,28,29,30,10,10,20,20,20,30,30,30,8,9,10,29,30,9,10,29,30,7,8,9,10,7,8,9,10,7,8,7,7,8,9,7,8,9,10,27,28,29,30,28,
8,7,27,27,28,7,8,9,10,20,30,10,30,10,27,28,29,7,8,27,28,29,30,8,9,10,30,28,29,30,20,20,30,30,30,10,30,7,8,9,10,29,30,9,10,29,30,7,8,9,10,7,8,9,10,7,8,7,7,8,9,7,8,9,10,7,8,7,8,9,
7,17,27,7,8,9,10,19,20,30,30,20,30,20,27,28,29,7,8,27,28,29,30,8,9,10,27,28,29,30,30,30,30,8,9,10,30,7,8,9,10,29,30,9,10,29,30,7,8,9,10,7,8,9,10,7,8,17,7,8,7,8,9,10,20,7,8,7,8,9,
17,27,7,8,9,10,10,8,9,10,29,30,30,30,27,28,29,7,8,27,28,29,30,8,9,10,27,28,29,30,28,29,30,8,9,10,30,8,9,10,20,29,30,9,10,29,30,7,8,9,10,7,8,9,10,7,8,27,7,8,7,8,9,10,30,7,8,7,8,9,
8,9,10,10,10,20,20,8,9,10,29,30,30,9,27,28,29,7,8,27,28,29,30,8,9,10,27,28,29,30,28,29,30,8,9,10,30,8,9,10,30,29,30,9,10,29,30,7,8,9,10,7,8,9,10,7,8,9,7,8,7,8,9,10,30,17,7,7,8,9,
8,9,10,20,20,30,30,8,9,10,29,30,30,9,27,28,29,7,8,27,28,29,30,9,10,20,28,29,30,27,28,29,30,8,9,10,30,10,9,10,28,29,30,9,10,29,30,7,8,9,10,10,8,9,10,7,8,9,7,8,7,8,9,10,30,27,7,7,8,9,
7,8,9,10,30,29,30,8,9,10,28,29,30,9,27,28,29,7,8,27,28,29,30,10,10,30,28,29,30,27,28,29,30,8,9,10,30,20,9,10,28,29,30,9,10,29,30,8,9,10,10,20,8,9,10,7,8,9,7,8,7,8,9,10,30,27,7,7,8,9,
7,8,9,10,29,30,7,8,9,10,28,29,30,9,27,28,29,7,8,27,28,29,30,20,10,27,28,29,30,27,28,29,30,8,9,10,29,30,9,10,28,29,30,9,10,29,30,8,9,10,20,30,8,9,10,7,8,9,7,8,7,8,9,10,30,10,7,8,9,10,
7,8,9,10,29,30,7,8,9,10,28,29,30,9,27,28,29,7,8,9,27,28,29,30,10,27,28,29,30,27,28,29,30,8,9,10,29,30,10,10,28,29,30,10,20,29,30,10,10,10,30,30,10,7,8,9,10,9,7,7,8,9,10,20,30,20,7,8,9,10,
7,8,9,10,29,30,7,8,9,10,28,29,30,9,27,28,29,17,7,8,27,28,29,30,10,27,28,29,7,8,9,10,30,9,10,20,29,30,10,20,28,29,30,10,30,29,30,20,10,20,29,30,20,7,8,9,10,9,17,7,8,9,10,30,29,30,7,8,9,10,
7,8,9,10,29,30,7,8,9,10,28,29,30,9,27,28,29,27,7,8,27,28,29,30,20,27,28,29,7,8,9,10,30,10,10,30,29,30,10,30,28,29,30,10,27,28,29,30,20,30,28,29,30,7,8,9,10,7,7,8,9,10,10,28,29,30,7,8,9,10,
7,8,9,10,29,30,7,8,9,10,28,29,30,9,27,28,29,30,7,7,27,28,7,8,9,7,8,9,10,8,9,10,30,20,10,28,7,8,9,10,28,29,30,20,27,28,29,30,30,27,28,29,30,7,8,9,10,17,7,8,9,10,10,28,29,30,8,9,10,20,
7,8,9,10,29,30,10,8,9,10,28,29,30,9,27,28,29,30,17,17,27,28,17,7,8,7,8,9,10,8,9,10,29,30,10,28,7,8,9,10,27,28,29,30,17,17,17,17,17,27,28,29,30,7,8,9,10,7,8,9,10,8,9,10,29,30,8,9,10,30,
7,8,9,10,29,30,20,10,10,10,28,29,30,9,27,28,29,30,27,27,27,27,27,7,8,7,8,9,10,8,9,10,29,30,20,27,7,8,9,10,27,7,8,9,10,27,27,27,27,7,8,9,10,7,8,9,10,7,8,9,10,8,9,10,29,30,10,7,8,9,
7,8,9,10,10,10,10,20,20,10,28,29,30,9,10,28,7,8,9,10,20,20,27,7,8,7,8,9,10,8,9,10,8,9,10,7,8,9,10,20,27,7,8,9,10,20,20,20,7,7,8,9,10,8,9,10,20,7,8,9,10,9,10,10,29,30,20,7,8,9,
7,8,9,10,20,20,20,10,10,10,10,10,30,7,8,9,10,10,10,10,30,30,27,7,8,7,8,9,10,10,9,10,7,8,9,10,8,9,10,30,7,8,9,10,10,30,30,30,17,7,8,9,10,8,9,10,30,7,8,9,10,19,20,10,28,29,30,7,8,9,
7,8,9,10,30,30,30,20,20,20,20,20,30,7,8,9,10,20,20,10,10,10,27,17,7,7,8,9,10,20,9,10,7,8,9,10,8,9,10,30,7,8,9,10,10,8,9,10,27,7,8,9,10,8,9,10,30,7,8,9,10,10,30,10,28,29,30,7,8,9,
7,7,7,7,7,8,7,8,9,10,30,30,30,7,8,9,10,30,30,20,10,9,10,27,7,7,8,9,10,30,9,10,7,8,9,10,8,9,10,30,7,8,9,10,10,8,9,10,27,7,8,9,10,8,9,10,7,7,8,9,10,10,7,8,9,10,30,7,8,9,
8,9,10,8,9,10,7,8,9,10,28,29,30,7,8,9,10,29,30,30,20,10,10,27,7,7,8,9,10,30,9,10,7,8,9,10,8,9,10,30,7,8,9,10,10,8,9,10,7,8,9,10,20,8,9,10,17,7,8,9,10,10,7,8,9,10,8,9,10,9,
8,9,10,9,7,8,9,10,10,10,28,29,30,7,8,9,10,28,29,30,30,10,10,27,7,7,8,9,10,30,10,10,7,8,9,10,9,10,20,30,9,10,8,9,10,8,9,10,7,8,9,10,30,8,9,10,7,8,9,10,20,10,7,8,9,10,8,9,10,9,
8,9,10,9,7,8,9,10,20,10,28,29,30,8,9,10,20,27,28,29,30,20,10,10,7,7,8,9,10,30,20,10,7,8,9,10,9,10,30,30,9,10,10,9,10,8,9,10,7,8,9,10,7,8,9,10,7,8,9,10,30,20,7,8,9,10,8,9,10,9,
8,9,10,10,7,8,9,10,30,10,28,29,30,8,9,10,30,10,27,28,29,30,20,10,7,7,8,9,10,29,30,10,7,8,9,10,9,10,29,30,9,10,20,9,10,8,9,10,7,8,9,10,10,8,9,7,7,8,9,10,10,7,7,8,9,10,9,10,20,9,
8,9,10,10,7,8,9,10,30,10,28,29,30,8,9,10,9,10,30,27,28,29,30,10,7,7,8,9,10,29,30,10,7,8,9,10,9,10,29,30,9,10,30,10,10,8,9,10,7,8,9,10,20,8,9,17,7,8,9,10,10,7,8,9,10,20,9,10,30,9,
8,9,10,10,7,8,9,10,30,10,28,29,30,8,9,10,9,10,29,27,28,29,30,10,7,7,8,9,10,29,30,10,17,7,7,8,9,10,29,30,9,10,30,20,10,8,9,10,7,8,9,10,30,8,9,27,7,8,9,10,10,7,8,9,10,30,9,10,30,9,
7,8,9,10,7,8,9,10,30,10,28,29,30,8,9,10,9,10,29,27,28,29,30,10,7,7,8,9,10,29,30,10,27,7,7,8,9,10,29,30,9,10,29,30,10,8,9,10,7,8,9,10,30,8,9,27,7,8,9,10,10,7,8,9,10,8,9,10,30,9,
7,8,9,10,7,8,9,10,30,10,28,29,30,8,9,10,9,10,29,27,28,29,30,10,7,7,8,9,10,29,30,10,28,7,7,8,9,10,29,30,9,10,29,30,20,10,9,10,7,8,9,10,30,8,9,7,8,9,10,20,10,7,8,9,10,8,9,10,30,9,
7,8,9,10,7,8,9,10,9,10,28,29,30,8,9,10,9,10,29,27,28,29,30,10,7,7,8,9,10,29,30,20,28,7,7,8,9,10,29,30,9,10,28,29,30,10,9,10,10,8,9,10,30,8,9,7,8,9,10,30,7,8,9,10,20,8,9,10,30,9,
7,8,9,10,7,8,9,10,9,10,28,29,30,8,9,10,9,10,30,27,28,29,30,10,7,7,8,9,10,28,29,30,28,7,7,8,9,10,29,30,9,10,28,29,30,10,9,10,20,8,9,10,30,8,9,7,8,9,10,9,7,8,9,10,30,9,10,20,30,9,
7,8,9,7,7,8,9,10,10,10,28,29,30,8,9,10,9,10,30,27,28,29,30,10,7,7,8,9,10,28,29,30,28,7,7,8,9,10,29,30,10,10,28,29,30,10,9,10,30,8,9,10,30,8,7,7,8,9,10,9,7,8,9,10,30,9,10,30,30,9,
7,8,7,17,7,8,9,10,7,8,9,10,30,9,10,20,8,9,10,27,28,29,30,10,7,7,8,9,10,28,29,30,28,7,7,8,9,10,10,30,20,10,28,29,30,20,9,10,30,8,9,10,30,8,17,7,8,9,10,9,7,8,9,10,30,9,10,29,30,9,
7,8,17,27,17,7,8,9,7,8,9,10,30,9,10,30,8,9,7,27,28,29,30,10,7,7,8,9,10,28,29,30,28,7,7,8,9,10,20,29,30,10,27,28,29,30,10,20,30,10,9,10,30,10,27,7,8,9,10,7,7,8,9,10,8,9,10,29,30,9,
7,7,27,28,7,8,9,10,7,8,9,10,30,9,10,7,8,9,17,27,28,29,30,10,7,7,8,9,10,28,29,30,28,7,7,8,9,10,30,29,30,10,27,28,29,30,10,30,30,20,9,10,30,20,27,7,8,9,10,17,7,8,9,10,8,9,10,29,30,9,
7,17,27,28,7,8,9,10,7,8,9,10,30,10,20,7,8,9,27,28,29,30,9,10,7,7,8,9,10,28,29,30,28,7,7,8,9,10,30,29,30,10,27,28,29,30,20,28,29,30,9,10,29,30,7,8,9,10,20,7,8,9,10,20,9,10,20,29,30,9,
8,9,10,7,8,9,10,20,7,8,9,10,30,10,30,17,7,8,27,28,29,30,9,10,7,7,8,9,10,28,29,30,10,7,7,8,9,10,30,10,30,10,7,27,28,29,30,28,29,30,9,10,29,30,7,8,9,10,30,7,8,9,10,30,9,10,30,29,30,9,
8,9,10,7,8,9,10,30,8,9,10,20,30,10,27,27,7,8,27,28,29,30,9,10,7,7,8,9,10,28,29,30,20,7,7,8,9,10,30,20,30,10,7,27,28,29,30,28,29,30,9,10,29,30,8,9,10,20,8,7,8,9,10,30,9,10,28,29,30,9,
8,9,10,8,9,10,10,30,8,9,10,30,30,20,27,28,7,7,27,28,29,30,10,10,7,7,8,9,10,28,29,30,30,17,7,8,9,10,29,30,30,10,7,27,28,29,30,28,29,30,9,10,29,30,8,9,10,30,8,7,8,9,10,30,9,10,28,29,30,9,
8,9,10,8,9,10,20,30,10,9,10,29,30,30,27,28,7,17,27,28,29,30,10,20,7,7,8,9,10,28,29,30,30,10,7,8,9,10,29,30,30,10,17,27,28,29,30,10,29,30,10,10,29,30,10,9,10,10,7,7,8,9,10,30,10,10,28,29,30,9,
8,9,10,8,9,10,30,30,20,9,10,29,30,29,27,28,7,7,8,9,10,10,10,30,7,7,8,9,10,28,29,30,30,20,7,8,9,10,29,30,30,10,27,27,28,29,30,20,29,30,20,10,29,30,20,9,10,20,7,8,9,10,20,30,20,10,28,29,30,9,
8,9,10,9,10,10,28,29,30,7,8,9,10,7,8,9,7,8,9,10,10,20,20,10,7,7,8,9,10,28,7,8,9,10,10,10,9,10,29,30,30,20,28,7,27,28,29,30,28,29,30,10,28,29,30,9,10,30,7,8,9,10,30,29,30,10,28,29,30,10,
8,9,10,7,8,9,10,29,30,7,8,9,7,8,9,10,7,8,9,10,20,30,30,20,10,10,10,10,8,9,10,10,10,20,20,20,9,10,29,30,29,30,28,7,27,28,29,30,28,29,30,10,28,29,30,9,10,30,7,8,9,10,28,29,30,10,28,29,30,20,
8,9,10,7,8,9,10,29,30,17,7,8,7,8,9,10,7,8,9,10,7,7,7,7,7,7,7,7,7,7,7,7,7,7,7,7,7,7,7,7,7,7,7,7,7,7,7,7,7,7,7,7,7,7,7,7,7,7,7,7,7,7,7,7,7,7,7,7,7,7,
8,9,10,7,8,9,10,29,7,27,7,8,7,8,9,10,7,8,9,10,17,17,17,7,8,9,10,10,10,10,10,10,10,10,10,10,10,10,10,10,10,10,10,10,10,10,10,10,10,10,10,10,10,10,10,10,10,10,10,10,10,10,10,10,10,10,10,10,10,10,
8,9,10,17,7,8,9,10,17,27,17,7,7,8,9,10,7,7,8,7,7,8,9,10,10,10,20,20,20,20,20,20,20,20,20,20,20,20,20,20,20,20,20,20,20,20,20,20,20,20,20,20,20,20,20,20,20,20,20,20,20,20,20,20,20,20,20,20,20,20,
8,9,10,27,7,8,9,10,27,28,27,7,7,8,9,10,17,7,8,17,17,7,7,7,7,7,7,7,7,7,7,7,7,7,7,7,7,7,7,8,9,10,10,10,10,10,10,10,10,10,10,10,10,10,10,10,10,10,10,10,10,10,10,10,10,10,10,10,10,10,
8,9,10,27,7,8,9,10,27,28,29,7,7,8,9,10,27,7,7,27,27,7,8,9,10,10,10,10,10,10,10,10,10,10,10,10,10,10,10,10,10,20,20,20,20,20,20,20,20,20,20,20,20,20,20,20,20,20,20,20,20,20,20,20,20,20,20,20,20,20,
8,9,10,27,7,8,9,10,27,28,29,17,17,7,8,9,10,17,7,8,9,17,7,7,7,7,7,7,7,7,7,7,7,7,7,7,7,7,7,7,7,7,7,7,7,7,7,7,7,7,7,7,7,7,7,7,7,7,7,7,7,7,7,7,7,7,7,7,7,7,
8,9,10,27,7,8,9,10,27,28,29,27,27,7,8,9,10,27,7,7,8,27,17,17,17,17,17,17,17,17,17,17,17,17,17,17,17,17,17,17,17,17,17,17,17,17,17,17,17,17,17,17,17,17,17,17,17,17,17,17,17,17,17,17,17,17,17,17,17,17,
8,9,10,27,17,7,8,9,27,28,29,30,7,17,7,8,9,7,8,9,10,10,10,10,10,10,10,10,10,10,10,10,10,10,10,10,10,10,10,10,10,10,10,10,10,10,10,10,10,10,10,10,10,10,10,10,10,10,10,10,10,10,10,10,10,10,10,10,10,10,
8,9,10,27,27,7,8,9,27,28,29,30,7,27,7,8,7,7,7,7,7,7,7,7,7,7,7,7,7,7,7,7,7,7,7,7,7,7,7,7,7,7,7,7,7,7,7,7,7,7,7,7,7,7,7,7,7,7,7,7,7,7,7,7,7,7,7,7,7,7,
8,9,10,27,28,7,8,9,10,27,28,29,7,8,17,7,17,17,17,17,17,7,7,7,7,8,9,10,10,10,10,10,10,10,10,10,10,10,10,10,10,10,10,10,10,10,10,10,10,10,10,10,10,10,10,10,10,10,10,10,10,10,10,10,10,10,10,10,10,10,
8,9,10,27,28,7,8,9,10,27,28,29,17,7,27,17,27,27,27,27,27,7,7,7,7,7,7,7,7,7,7,7,7,7,7,7,7,7,7,7,7,7,7,7,7,7,7,7,7,7,7,7,7,7,7,7,7,7,7,7,7,7,7,7,7,7,7,7,7,7,
8,9,10,27,28,7,8,9,10,27,28,29,27,7,8,27,17,7,8,27,7,17,17,7,7,7,7,7,7,7,7,7,7,7,7,7,7,7,7,7,7,7,7,7,7,7,7,7,7,7,7,7,7,7,7,7,7,7,7,7,7,7,7,7,7,7,7,7,8,9,
8,9,10,27,28,7,8,9,10,27,28,29,30,7,8,27,27,7,8,9,7,27,27,17,17,17,17,17,17,17,17,17,17,17,17,17,17,17,17,17,17,17,17,17,17,17,17,17,17,17,17,17,17,17,17,17,17,17,17,17,17,17,17,17,17,17,17,17,7,7,
8,9,10,27,28,7,8,9,10,27,28,29,30,7,7,27,28,7,8,7,8,9,10,10,10,10,10,10,10,10,10,10,10,10,10,10,10,10,10,10,10,10,10,10,10,10,10,10,10,10,10,10,10,10,10,10,10,10,10,10,10,10,10,10,10,10,10,10,10,10,
8,9,10,27,28,7,8,9,10,27,28,29,30,7,17,27,28,7,8,17,7,7,7,7,7,8,9,10,20,20,20,20,20,20,20,20,20,20,20,20,20,20,20,20,20,20,20,20,20,20,20,20,20,20,20,20,20,20,20,20,20,20,20,20,20,20,20,20,20,20,
8,9,10,27,28,7,8,9,7,27,28,7,7,7,27,27,28,7,8,27,17,17,17,17,17,7,7,7,7,7,7,7,7,7,7,7,7,7,7,7,7,7,7,7,7,7,7,7,7,7,7,7,7,7,7,7,7,7,7,7,7,7,7,7,7,7,7,7,7,7,
8,9,7,27,28,7,8,7,7,7,7,17,17,17,27,28,29,7,7,7,7,7,7,7,7,7,7,7,7,7,7,7,7,7,7,7,7,7,7,7,7,7,7,7,7,7,7,7,7,7,7,7,7,7,7,7,7,7,7,7,7,8,9,10,17,17,17,17,17,17,
8,9,17,27,28,7,8,17,17,17,17,27,27,27,27,7,7,7,17,17,17,17,17,17,17,17,17,17,17,17,17,17,17,17,17,17,17,17,17,17,17,17,17,17,17,17,17,17,17,17,17,17,17,17,17,17,17,17,17,17,17,7,7,7,7,7,7,7,8,9,
8,7,27,27,28,7,7,27,27,27,27,28,29,7,7,17,17,17,27,27,27,27,27,27,27,27,27,27,27,27,27,27,27,27,27,27,27,27,27,27,27,27,27,27,27,27,27,27,27,27,27,27,27,27,27,27,27,27,27,27,27,17,17,17,17,17,17,17,18,19,
7,17,27,28,29,7,17,27,27,28,29,7,7,17,17,27,27,27,28,29,30,10,10,10,10,10,10,10,10,10,10,10,10,10,10,10,10,10,10,10,10,10,10,10,10,10,10,10,10,10,10,10,10,10,10,10,10,10,10,10,10,27,27,27,27,27,27,27,28,29,
17,27,28,29,30,17,27,28,27,28,29,17,17,27,27,28,29,30,20,20,20,20,20,20,20,20,20,20,20,20,20,20,20,20,20,20,20,20,20,20,20,20,20,20,20,20,20,20,20,20,20,20,20,20,20,20,20,20,20,20,20,20,20,7,8,9,10,20,20,30
</data>
 </layer>
 <layer id="2" name="walls" width="70" height="80">
  <data encoding="csv">
79,79,79,79,79,79,79,79,79,79,79,79,79,79,79,79,79,79,79,79,79,79,79,79,79,79,79,79,79,79,79,79,79,79,79,79,79,79,79,79,79,79,79,79,79,79,79,79,79,79,79,79,79,79,79,79,79,79,79,79,79,79,79,79,79,79,79,79,79,79,
1,4,2,3,4,5,5,16,79,79,79,1,2,3,4,5,2,3,4,5,2,3,4,5,2,3,4,5,6,11,2,3,4,5,2,3,4,5,2,3,4,5,2,3,4,5,3,4,2,3,4,5,2,3,4,5,2,3,4,5,2,3,4,5,2,3,4,5,6,79,
11,0,0,0,0,0,0,26,79,79,79,1,0,0,0,0,0,0,0,0,0,0,0,0,0,0,0,0,16,21,0,0,0,0,0,0,0,0,0,0,0,0,0,0,0,0,0,0,0,0,0,0,0,0,0,0,0,0,0,0,0,0,0,0,0,0,0,0,16,79,
21,0,0,0,0,0,0,36,79,79,79,11,0,0,0,0,0,0,0,0,0,0,0,0,0,0,0,0,26,31,0,0,0,0,0,0,0,0,0,0,0,0,0,0,0,0,0,0,0,0,0,0,0,0,0,0,0,0,0,0,0,0,0,0,0,0,0,0,26,79,
1,0,0,0,0,0,0,2,3,4,5,5,0,0,0,0,0,0,0,0,0,0,0,0,0,0,0,0,36,1,0,0,0,0,0,0,0,0,0,55,56,0,0,0,0,0,0,0,0,0,0,0,0,0,0,0,0,55,43,44,56,0,0,0,0,0,0,0,6,79,
11,0,0,0,0,0,0,0,0,0,0,0,0,0,0,0,0,0,0,0,0,0,0,0,0,0,0,0,6,11,0,0,0,0,0,0,0,0,55,46,21,0,0,0,0,0,0,0,0,0,0,0,0,0,0,0,0,6,79,79,1,0,0,0,0,0,0,0,16,79,
21,0,0,0,0,0,0,0,0,0,0,0,0,0,0,0,0,0,0,0,0,0,0,0,0,0,0,0,16,21,0,0,0,0,0,0,0,0,16,79,41,43,44,42,43,54,0,0,0,0,0,0,0,0,0,0,0,16,79,79,11,0,0,0,0,0,0,0,26,79,
31,0,0,0,0,0,0,0,0,0,0,0,0,0,0,0,0,0,0,0,0,0,0,0,0,0,0,0,26,31,0,0,0,0,0,0,0,0,26,79,31,3,4,2,3,5,0,0,0,0,0,0,0,0,0,0,0,26,79,79,21,0,0,0,0,0,0,0,36,79,
11,0,0,0,0,0,0,55,43,44,45,56,0,0,0,0,0,0,0,0,0,0,0,0,0,0,0,0,36,1,0,0,0,0,0,0,0,0,4,5,4,0,0,0,0,0,0,0,0,0,0,0,0,0,0,0,0,36,79,79,21,0,0,0,0,0,0,0,6,79,
21,0,0,0,0,0,0,16,79,79,79,1,0,0,0,0,0,0,0,0,0,0,0,0,0,0,0,0,6,11,0,0,0,0,0,0,0,0,0,0,0,0,0,0,0,0,0,0,0,0,0,0,0,0,0,0,0,3,4,5,4,0,0,0,0,0,0,0,16,79,
21,0,0,0,0,0,0,26,79,79,79,11,0,0,0,0,0,0,0,0,0,0,0,0,0,0,0,0,16,21,0,0,0,0,0,0,0,0,0,0,0,0,0,0,0,0,0,0,0,0,0,0,0,0,0,0,0,0,0,0,0,0,0,0,0,0,0,0,26,79,
41,43,42,42,43,44,45,46,79,79,79,31,0,0,0,0,0,0,0,0,0,0,0,0,0,0,0,0,36,31,0,0,0,0,0,0,0,0,0,0,0,0,0,0,0,0,0,0,0,0,0,0,0,0,0,0,0,0,0,0,0,0,0,0,0,0,0,0,36,79,
79,79,79,79,79,79,79,79,79,79,79,41,42,43,44,45,42,43,44,45,42,43,44,54,0,0,51,44,46,41,42,43,44,45,45,56,0,0,55,45,42,43,44,45,45,56,0,0,55,45,45,56,0,0,55,45,45,56,0,0,55,45,45,56,0,0,55,45,46,79,
79,79,79,79,79,79,79,79,79,79,79,21,4,2,3,4,5,2,3,4,26,79,1,4,0,0,4,6,79,79,79,79,79,79,1,4,0,0,4,6,79,79,79,79,1,4,0,0,4,6,1,4,0,0,4,6,1,4,0,0,4,6,1,4,0,0,4,6,79,79,
79,79,79,79,79,79,79,79,79,79,79,21,0,0,0,0,0,0,0,0,26,79,11,0,0,0,0,26,79,79,79,79,79,79,1,0,0,0,0,6,79,79,79,79,1,0,0,0,0,6,1,0,0,0,0,6,1,0,0,0,0,6,1,0,0,0,0,6,79,79,
79,79,79,79,79,79,79,79,79,79,79,1,0,0,0,0,0,0,0,0,6,79,11,0,0,0,0,16,79,79,79,79,79,79,11,0,0,0,0,16,79,79,79,79,11,0,0,0,0,16,11,0,0,0,0,16,11,0,0,0,0,16,11,0,0,0,0,16,79,79,
79,79,79,79,79,79,79,79,79,79,79,11,0,0,55,42,43,56,0,0,16,79,21,0,0,0,0,26,79,79,79,79,79,79,21,0,0,0,0,26,79,79,79,79,21,0,0,0,0,26,21,0,0,0,0,26,21,0,0,0,0,26,21,0,0,0,0,26,79,79,
79,79,79,79,79,79,79,79,79,79,79,21,0,0,36,79,79,31,0,0,26,79,31,0,0,0,0,3,3,4,5,2,3,4,5,0,0,0,0,36,79,79,79,79,31,0,0,0,0,36,31,0,0,0,0,36,31,0,0,0,0,36,31,0,0,0,0,36,79,79,
79,79,79,79,79,79,79,79,79,79,79,31,0,0,3,2,3,3,0,0,36,79,1,0,0,0,0,0,0,0,0,0,0,0,0,0,0,0,0,6,79,79,79,79,1,0,0,0,0,6,1,0,0,0,0,6,1,0,0,0,0,6,1,0,0,0,0,6,79,79,
79,79,79,79,79,79,79,79,79,79,79,1,0,0,0,0,0,0,0,0,6,79,11,0,0,0,0,0,0,0,0,0,0,0,0,0,0,0,0,16,79,79,79,79,11,0,0,0,0,16,11,0,0,0,0,16,11,0,0,0,0,16,11,0,0,0,0,16,79,79,
79,79,79,79,79,79,79,79,79,79,79,11,0,0,0,0,0,0,0,0,16,79,21,0,0,0,0,0,0,0,0,0,0,0,0,0,0,0,0,26,79,79,79,79,21,0,0,0,0,26,21,0,0,0,0,26,21,0,0,0,0,26,21,0,0,0,0,26,79,79,
79,79,79,79,79,79,79,79,79,79,79,21,0,0,0,0,0,0,0,0,26,79,31,0,0,0,0,0,0,0,0,0,0,0,0,0,0,0,0,36,79,79,79,79,41,56,0,0,55,46,41,56,0,0,55,46,31,0,0,0,0,36,41,42,43,44,45,46,79,79,
79,79,79,79,79,79,79,79,79,79,79,31,0,0,55,42,43,56,0,0,36,79,41,42,43,44,45,42,43,44,45,42,43,44,45,42,43,44,45,46,79,79,21,4,5,2,0,0,26,79,79,11,0,0,3,4,5,0,0,0,0,3,3,4,5,2,3,4,6,79,
79,1,2,3,4,3,4,5,2,3,4,5,0,0,3,2,3,3,0,0,4,3,3,4,5,2,3,4,5,2,3,4,5,2,3,6,79,79,79,79,79,79,11,0,0,0,0,0,26,79,79,11,0,0,0,0,0,0,0,0,0,0,0,0,0,0,0,0,16,79,
79,11,0,0,0,0,0,0,0,0,0,0,0,0,0,0,0,0,0,0,0,0,0,0,0,0,0,0,0,0,0,0,0,0,0,16,79,79,79,79,79,79,21,0,0,0,0,0,6,79,79,1,0,0,0,0,0,0,0,0,0,0,0,0,0,0,0,0,26,79,
79,11,0,0,0,0,0,0,0,0,0,0,0,0,0,0,0,0,0,0,0,0,0,0,0,0,0,0,0,0,0,0,0,0,0,26,79,79,79,79,79,79,31,0,0,0,0,0,16,79,79,11,0,0,0,0,0,0,0,0,0,0,0,0,0,0,0,0,36,79,
79,21,0,0,0,0,0,0,0,0,0,0,0,0,0,0,0,0,0,0,0,0,0,0,0,0,0,0,0,0,0,0,0,0,0,6,79,79,79,79,79,79,1,0,0,0,0,0,26,79,79,21,0,0,0,0,0,55,43,44,45,42,43,44,45,56,0,0,6,79,
79,31,0,0,0,0,0,0,0,0,0,0,0,0,0,0,0,0,0,0,0,0,0,0,0,0,0,0,0,0,0,0,0,0,0,36,79,79,79,79,79,79,31,0,0,0,0,0,36,79,79,31,0,0,0,0,0,2,3,4,3,2,3,2,3,4,0,0,16,79,
79,1,0,0,0,0,0,0,0,0,0,0,0,0,0,0,0,0,0,0,0,0,0,0,0,0,0,0,0,0,0,0,0,0,0,36,79,79,79,79,79,79,31,0,0,0,0,0,16,79,79,21,0,0,0,0,0,0,0,0,0,0,0,0,0,0,0,0,26,79,
79,11,0,0,0,0,0,0,0,0,0,0,0,0,0,0,0,0,0,0,0,0,0,0,0,0,0,0,0,0,0,0,0,0,0,26,79,79,79,79,79,79,31,0,0,0,0,0,4,3,4,3,0,0,0,0,0,0,0,0,0,0,0,0,0,0,0,0,36,79,
79,21,0,0,0,0,0,0,0,0,0,0,0,0,0,0,0,0,0,0,0,0,0,0,0,0,0,0,0,0,0,0,0,0,0,3,2,3,4,2,3,4,5,0,0,0,0,0,0,0,0,0,0,0,0,55,56,0,0,0,0,0,0,0,0,0,0,0,6,79,
79,31,0,0,0,0,0,0,0,0,0,0,0,0,0,0,0,0,0,0,0,0,0,0,0,0,0,0,0,0,0,0,0,0,0,0,0,0,0,0,0,0,0,0,0,0,0,0,0,0,0,0,0,0,55,46,41,56,0,0,0,0,0,0,0,0,0,0,16,79,
79,1,0,0,0,0,0,0,0,0,0,0,0,0,0,0,0,0,0,0,0,0,0,0,0,0,0,0,0,0,0,0,0,0,0,0,0,0,0,0,0,0,0,0,0,0,55,56,0,0,0,0,0,0,26,79,79,11,0,0,0,0,0,0,0,0,0,0,26,79,
79,11,0,0,0,0,0,0,0,0,0,0,0,0,0,0,0,0,0,0,0,0,0,0,0,0,0,0,0,0,0,0,0,0,0,0,0,0,0,0,0,0,0,0,0,51,46,41,54,0,0,0,0,0,4,26,21,4,0,0,0,0,0,0,0,0,0,0,36,79,
79,21,0,0,0,0,0,0,0,0,0,0,0,0,0,0,0,0,0,0,0,0,0,0,0,0,0,0,0,0,0,0,0,0,0,51,42,43,42,43,44,45,54,0,0,36,79,79,21,0,0,0,0,0,0,3,4,0,0,0,0,0,0,0,0,0,0,0,6,79,
79,31,0,0,0,0,0,0,0,0,0,0,0,0,0,0,0,0,0,0,0,0,0,0,0,0,0,0,0,0,0,0,0,0,0,6,79,79,79,79,79,79,1,0,0,3,3,4,5,0,0,0,0,0,0,0,0,0,0,0,0,0,0,0,0,0,0,0,16,79,
79,1,0,0,0,0,0,0,0,0,0,0,0,0,0,0,0,0,0,0,0,0,0,0,0,0,0,0,0,0,0,0,0,0,0,26,79,79,79,79,79,79,21,0,0,0,0,0,0,0,0,0,0,0,0,0,0,0,0,0,0,0,0,0,0,0,0,0,26,79,
79,11,0,0,0,0,0,0,0,0,0,0,0,0,0,0,0,0,0,0,0,0,0,0,0,0,0,0,0,0,0,0,0,0,0,36,79,79,79,79,79,79,31,0,0,0,0,0,0,0,0,0,0,0,0,0,0,0,0,0,0,0,0,0,0,0,0,0,36,79,
79,21,0,0,0,0,0,0,55,43,44,45,43,42,43,44,45,42,43,44,45,42,43,54,0,0,55,44,45,42,43,44,45,42,43,46,79,79,79,79,79,79,41,44,45,56,0,0,55,44,43,44,45,42,43,44,45,42,43,44,45,42,44,56,0,0,55,44,6,79,
79,31,0,0,0,0,0,0,6,79,79,1,3,4,5,3,4,5,2,3,4,5,2,4,0,0,3,4,5,2,3,4,5,2,3,4,5,4,6,79,1,2,3,4,5,2,0,0,5,2,3,4,5,2,3,4,5,2,3,4,2,3,4,5,0,0,4,5,16,79,
79,1,0,0,0,0,0,0,16,79,79,11,0,0,0,0,0,0,0,0,0,0,0,0,0,0,0,0,0,0,0,0,0,0,0,0,0,0,16,79,11,0,0,0,0,0,0,0,0,0,0,0,0,0,0,0,0,0,0,0,0,0,0,0,0,0,0,0,26,79,
79,11,0,0,0,0,0,0,26,79,79,21,0,0,0,0,0,0,0,0,0,0,0,0,0,0,0,0,0,0,0,0,0,0,0,0,0,0,26,79,21,0,0,0,0,0,0,0,0,0,0,0,0,0,0,0,0,0,0,0,0,0,0,0,0,0,0,0,36,79,
79,21,0,0,0,0,0,0,36,79,79,31,0,0,0,0,0,0,0,0,0,0,0,0,0,0,0,0,0,0,0,0,0,0,0,0,0,0,36,79,31,0,0,0,0,0,55,56,0,0,0,0,55,56,0,0,0,0,55,56,0,0,0,0,55,56,0,0,6,79,
79,31,0,0,0,0,0,0,6,79,79,1,0,0,0,55,56,0,0,0,0,0,0,0,0,0,0,0,0,0,0,0,0,55,56,0,0,0,6,79,1,0,0,0,0,55,46,41,56,0,0,55,46,41,56,0,0,55,46,41,56,0,0,55,46,21,0,0,16,79,
79,1,0,0,0,0,0,0,6,79,79,11,0,0,55,46,41,56,0,0,0,0,0,0,0,0,0,0,0,0,0,0,55,46,41,56,0,0,16,79,11,0,0,0,0,2,3,4,5,0,0,2,3,4,5,0,0,2,3,4,5,0,0,4,3,4,0,0,26,79,
79,11,0,0,0,0,0,0,16,79,79,21,0,0,16,79,79,21,0,0,0,0,0,0,55,56,0,0,0,0,0,0,16,79,79,21,0,0,26,79,21,0,0,0,0,0,0,0,0,0,0,0,0,0,0,0,0,0,0,0,0,0,0,0,0,0,0,0,36,79,
79,21,0,0,0,0,0,0,26,79,79,31,0,0,5,26,21,5,0,0,0,0,0,55,46,41,56,0,0,0,0,0,4,36,21,5,0,0,36,79,31,0,0,0,0,0,0,0,0,0,0,0,0,0,0,0,0,0,0,0,0,0,0,0,0,0,0,0,6,79,
79,1,0,0,0,0,0,0,2,3,4,5,0,0,0,3,4,0,0,0,0,55,44,46,79,79,41,43,56,0,0,0,0,3,4,0,0,0,2,4,5,0,0,0,0,0,0,0,0,0,0,0,0,0,0,0,0,0,0,0,0,0,0,0,0,0,0,0,16,79,
79,11,0,0,0,0,0,0,0,0,0,0,0,0,0,0,0,0,0,0,55,46,79,79,79,79,79,79,41,56,0,0,0,0,0,0,0,0,0,0,0,0,0,0,0,0,0,0,0,0,0,0,0,0,0,0,0,0,0,0,0,0,0,0,0,0,0,0,26,79,
79,21,0,0,0,0,0,0,0,0,0,0,0,0,0,0,0,0,0,0,26,79,79,79,79,79,79,79,79,11,0,0,0,0,0,0,0,0,0,0,0,0,0,0,0,0,0,0,0,0,0,0,0,0,0,0,0,0,0,0,0,0,0,0,0,0,0,0,36,79,
79,31,0,0,0,0,0,0,0,0,0,0,0,0,0,0,0,0,0,0,2,26,79,79,79,79,79,79,21,5,0,0,0,0,0,0,0,0,0,0,0,0,0,0,0,0,0,0,0,0,0,0,0,0,0,0,0,0,0,0,0,0,0,0,0,0,0,0,6,79,
79,41,42,43,44,42,43,44,45,52,53,54,0,0,0,55,56,0,0,0,0,3,4,26,79,79,31,3,4,0,0,0,0,55,56,0,0,0,55,44,56,0,0,0,0,55,43,44,56,0,0,55,43,44,56,0,0,55,43,44,56,0,0,55,43,44,44,45,46,79,
79,79,79,79,79,79,79,79,79,79,79,11,0,0,55,46,41,56,0,0,0,0,0,4,26,21,4,0,0,0,0,0,55,46,41,56,0,0,6,79,1,0,0,0,0,3,4,3,4,0,0,3,4,3,4,0,0,3,4,3,4,0,0,3,4,3,4,4,26,79,
79,79,79,79,79,79,79,79,79,79,79,21,0,0,16,79,79,31,0,0,0,0,0,0,4,5,0,0,0,0,0,0,16,79,79,31,0,0,16,79,11,0,0,0,0,0,0,0,0,0,0,0,0,0,0,0,0,0,0,0,0,0,0,0,0,0,0,0,36,79,
79,79,79,79,79,79,79,79,79,79,79,31,0,0,2,36,31,2,0,0,0,0,0,0,0,0,0,0,0,0,0,0,2,36,31,2,0,0,26,79,21,0,0,0,0,0,0,0,0,0,0,0,0,0,0,0,0,0,0,0,0,0,0,0,0,0,0,0,6,79,
79,79,79,79,79,79,79,79,79,79,79,1,0,0,0,2,2,0,0,0,0,0,0,0,0,0,0,0,0,0,0,0,0,2,2,0,0,0,6,79,1,0,0,0,0,0,0,0,0,55,56,0,0,0,0,55,56,0,0,0,0,55,56,0,0,0,0,0,16,79,
79,79,79,79,79,79,79,79,79,79,79,11,0,0,0,0,0,0,0,0,0,0,0,0,0,0,0,0,0,0,0,0,0,0,0,0,0,0,16,79,11,0,0,0,0,0,0,0,55,46,41,54,0,0,55,46,41,54,0,0,55,46,41,54,0,0,0,0,26,79,
79,79,79,79,79,79,79,79,79,79,79,21,0,0,0,0,0,0,0,0,0,0,0,0,0,0,0,0,0,0,0,0,0,0,0,0,0,0,26,79,21,0,0,0,0,0,0,0,36,79,79,31,0,0,36,79,79,31,0,0,36,79,79,31,0,0,0,0,36,79,
79,79,79,79,79,79,79,79,79,79,79,21,0,0,0,0,0,0,0,0,0,0,0,0,0,0,0,0,0,0,0,0,0,0,0,0,0,0,36,79,41,42,43,44,45,42,43,44,46,79,79,41,45,42,46,79,79,41,43,44,46,79,79,41,45,42,43,44,46,79,
79,79,79,79,79,79,79,79,79,79,79,41,42,43,44,45,42,42,43,44,45,42,43,56,0,0,55,44,45,42,43,44,45,42,43,44,45,43,46,79,79,79,79,79,79,79,79,79,79,79,79,79,79,79,79,79,79,79,79,79,79,79,79,79,79,79,79,79,79,79,
79,79,79,79,79,79,79,79,79,79,79,79,79,79,79,79,79,79,79,79,79,79,1,2,0,0,5,6,79,79,79,79,79,79,79,79,79,79,79,79,79,79,79,79,79,79,79,79,79,79,79,79,79,79,79,79,79,79,79,79,79,79,79,79,79,79,79,79,79,79,
79,79,79,79,79,79,79,79,79,79,79,79,79,79,79,79,79,79,79,79,79,79,11,0,0,0,0,16,1,2,3,4,5,2,6,79,79,1,3,4,5,2,2,2,2,2,2,2,2,2,2,2,2,2,2,2,2,2,6,79,79,1,2,2,2,2,3,6,79,79,
79,79,79,79,79,79,79,79,79,79,79,79,79,79,79,79,79,79,79,79,79,79,21,0,0,0,0,26,11,0,0,0,0,0,6,79,79,11,0,0,0,0,0,0,0,0,0,0,0,0,0,0,0,0,0,0,0,0,16,79,79,11,0,0,0,0,0,16,79,79,
79,79,79,79,79,79,79,79,79,79,79,79,79,79,79,79,79,79,79,79,79,79,31,0,0,0,0,36,21,0,0,0,0,0,16,79,79,21,0,0,0,0,0,0,0,0,0,0,0,0,0,0,0,0,0,0,0,0,6,79,79,1,0,0,0,0,0,26,79,79,
79,79,1,2,3,4,5,2,3,4,5,2,3,4,5,2,3,4,5,2,3,4,5,0,0,0,0,6,31,0,0,0,0,0,26,79,79,31,0,0,0,0,0,0,0,0,0,0,0,0,0,0,0,0,0,0,0,0,16,79,79,11,0,0,0,0,0,36,79,79,
79,79,11,0,0,0,0,0,0,0,0,0,0,0,0,0,0,0,0,0,0,0,0,0,0,0,0,16,1,0,0,0,0,0,36,79,79,31,0,0,0,0,0,0,0,0,0,0,0,0,0,0,0,0,0,0,0,0,26,79,79,21,0,0,0,0,0,6,79,79,
79,79,21,0,0,0,0,0,0,0,0,0,0,0,0,0,0,0,0,0,0,0,0,0,0,0,0,26,11,0,0,0,0,0,26,79,79,21,0,0,0,0,0,0,0,0,0,0,0,0,0,0,0,0,0,0,0,0,36,79,79,31,0,0,0,0,0,16,79,79,
79,79,31,0,0,0,0,0,0,0,0,0,0,0,0,0,0,0,0,0,0,0,0,0,0,0,0,36,21,0,0,0,0,0,2,16,1,5,0,0,0,0,0,0,0,0,0,0,0,0,0,0,0,0,0,0,0,0,4,26,31,5,0,0,0,0,0,26,79,79,
79,79,1,0,0,0,0,0,0,0,0,0,0,0,0,0,0,0,0,0,0,0,0,0,0,0,0,36,31,0,0,0,0,0,0,3,4,0,0,0,0,0,0,0,0,0,0,0,0,0,0,0,0,0,0,0,0,0,0,4,5,0,0,0,0,0,0,6,79,79,
79,79,11,0,0,0,0,55,43,44,45,43,44,45,42,43,44,45,45,43,44,45,45,42,43,44,45,46,1,0,0,0,0,0,0,0,0,0,0,0,0,0,0,0,0,0,0,0,0,0,0,0,0,0,0,0,0,0,0,0,0,0,0,0,0,0,0,16,79,79,
79,79,21,0,0,0,0,6,79,79,79,79,79,79,79,79,79,79,79,79,79,79,79,79,79,79,79,79,11,0,0,0,0,0,0,0,0,0,0,0,0,0,0,0,0,0,0,0,0,0,0,0,0,0,0,0,0,0,0,0,0,0,0,0,0,0,0,26,79,79,
79,79,31,0,0,0,0,16,79,79,79,79,79,79,79,79,79,79,79,79,79,79,79,79,79,79,79,79,21,0,0,0,0,0,0,0,0,0,0,0,0,0,0,0,0,0,0,0,0,0,0,0,0,0,0,0,0,0,0,0,0,0,0,0,0,0,0,36,79,79,
79,79,1,0,0,0,0,26,79,79,79,79,79,79,79,79,79,79,79,79,79,79,79,79,79,79,79,79,31,0,0,0,0,0,0,0,0,0,0,0,0,55,56,0,0,0,0,0,0,0,0,0,0,55,56,0,0,0,0,0,0,0,0,0,0,0,0,26,79,79,
79,79,11,0,0,0,0,2,3,4,5,2,3,4,5,2,3,4,5,2,3,4,5,2,3,2,3,4,5,0,0,0,0,0,0,0,0,0,0,0,55,46,41,56,0,0,0,0,0,0,0,0,55,46,41,56,0,0,0,0,0,0,0,0,0,0,0,36,79,79,
79,79,21,0,0,0,0,0,0,0,0,0,0,0,0,0,0,0,0,0,0,0,0,0,0,0,0,0,0,0,0,0,0,0,0,0,0,0,0,0,16,79,79,1,0,0,0,0,0,0,0,0,26,79,79,21,0,0,0,0,0,0,0,0,0,0,0,6,79,79,
79,79,1,0,0,0,0,0,0,0,0,0,0,0,0,0,0,0,0,0,0,0,0,0,0,0,0,0,0,0,0,0,0,0,0,0,0,0,0,0,26,79,79,1,0,0,0,0,0,0,0,0,16,79,79,11,0,0,0,0,0,0,0,0,0,0,0,16,79,79,
79,79,11,0,0,0,0,0,0,0,0,0,0,0,0,0,0,0,0,0,0,0,0,0,0,0,0,0,0,0,0,0,0,0,0,0,0,0,0,0,16,79,79,11,0,0,0,0,0,0,0,0,26,79,79,21,0,0,0,0,0,0,0,0,0,0,0,26,79,79,
79,79,21,0,0,0,0,0,0,0,0,0,0,0,0,0,0,0,0,0,0,0,0,0,0,0,0,0,0,0,0,0,0,0,0,0,0,0,0,0,26,79,79,21,0,0,0,0,0,0,0,0,36,79,79,31,0,0,0,0,0,0,0,0,0,0,0,36,79,79,
79,79,41,42,43,44,45,42,43,44,45,42,43,44,42,43,44,45,43,44,45,42,43,44,45,42,43,44,45,42,42,43,44,42,43,44,45,42,43,42,46,79,79,41,44,45,42,43,44,45,45,45,46,79,79,41,45,45,45,45,45,45,45,45,45,45,44,46,79,79,
79,79,79,79,79,79,79,79,79,79,79,79,79,79,79,79,79,79,79,79,79,79,79,79,79,79,79,79,79,79,79,79,79,79,79,79,79,79,79,79,79,79,79,79,79,79,79,79,79,79,79,79,79,79,79,79,79,79,79,79,79,79,79,79,79,79,79,79,79,79
</data>
 </layer>
 <layer id="3" name="decorations" width="70" height="80" visible="0">
  <data encoding="csv">
0,0,0,0,0,0,0,0,0,0,0,0,0,0,0,0,0,0,0,0,0,0,0,0,0,0,0,0,0,0,0,0,0,0,0,0,0,0,0,0,0,0,0,0,0,0,0,0,0,0,0,0,0,0,0,0,0,0,0,0,0,0,0,0,0,0,0,0,0,0,
0,0,0,0,0,0,0,0,0,0,0,0,65,0,0,0,0,0,94,0,0,94,0,0,0,0,0,2147483713,0,0,65,0,0,0,0,0,0,0,91,0,0,0,0,0,0,0,0,0,91,0,0,0,0,0,0,0,0,0,0,91,0,0,0,0,0,0,0,66,0,0,
0,0,0,0,0,0,0,0,0,0,0,0,3758096453,2684354638,536870981,0,0,0,0,0,0,0,0,0,0,0,0,0,0,0,92,0,0,0,0,0,0,0,0,0,0,0,0,0,0,0,78,0,0,0,0,0,0,0,0,0,0,0,0,0,0,0,0,0,0,0,0,2147483740,0,0,
0,0,0,0,0,0,0,0,0,0,0,0,1610612814,1073741893,0,0,0,0,0,0,0,0,0,0,0,0,0,0,0,0,0,0,0,0,0,0,0,0,0,0,0,0,0,0,0,0,0,0,0,0,0,0,0,0,0,0,0,0,0,0,0,0,0,0,0,0,0,0,0,0,
0,0,0,0,0,0,0,0,0,0,0,0,0,0,0,0,0,0,0,0,0,0,0,0,0,0,0,0,0,0,0,0,0,0,0,0,0,0,0,0,0,0,0,0,0,0,0,0,0,0,0,0,78,0,0,0,0,0,0,0,0,0,0,0,0,0,78,0,0,0,
0,0,0,0,0,0,0,0,0,0,0,0,92,0,0,0,0,0,0,0,0,0,0,0,0,0,0,0,0,0,0,0,0,0,0,0,0,0,0,0,0,0,0,0,0,0,0,0,0,0,0,69,0,2147483717,0,0,0,0,0,0,0,0,0,0,0,0,0,0,0,0,
0,0,0,0,0,0,0,0,0,0,0,0,0,0,0,0,0,0,0,0,0,0,0,0,0,0,0,0,0,0,0,0,0,0,0,0,0,0,0,0,0,0,0,0,0,0,0,0,0,0,60,94,0,94,0,0,0,0,0,0,0,0,0,0,0,0,0,0,0,0,
0,0,0,0,0,0,0,0,0,0,0,0,0,0,0,0,0,0,0,0,0,0,0,0,0,0,0,0,0,0,0,0,0,0,0,0,0,0,0,0,0,0,0,0,0,0,0,0,0,1610612814,0,0,0,0,0,2684354638,0,0,0,0,0,0,0,0,0,0,0,0,0,0,
0,0,0,0,0,0,0,0,0,0,0,0,92,0,0,0,0,0,0,0,0,0,0,0,0,0,0,0,0,0,0,0,0,0,0,0,0,0,0,0,0,0,0,0,0,0,0,0,0,0,0,94,0,94,0,0,0,0,0,0,0,0,0,0,0,0,0,0,0,0,
0,0,0,0,0,0,0,0,0,0,0,0,0,0,0,0,0,0,0,0,0,0,0,0,0,0,0,0,0,0,0,0,0,0,0,0,0,0,0,0,0,0,0,0,0,0,0,0,0,0,0,3758096453,0,1073741893,0,0,0,0,0,0,0,0,0,0,0,0,0,0,0,0,
0,0,0,0,0,0,0,0,0,0,0,0,0,0,0,0,0,0,0,0,0,0,0,0,0,0,0,0,0,0,0,0,0,0,0,0,0,0,0,0,0,0,0,0,0,0,0,0,0,0,0,0,536870990,0,0,0,0,0,0,0,0,0,0,0,0,0,0,0,0,0,
0,0,0,0,0,0,0,0,0,0,0,0,0,0,0,0,0,0,0,0,0,0,0,0,0,0,0,0,0,0,92,0,0,0,0,0,0,0,0,0,0,0,0,0,0,0,0,0,0,0,0,0,0,0,0,0,0,78,0,0,0,0,0,0,0,0,0,2147483740,0,0,
0,0,0,0,0,0,0,0,0,0,0,0,0,0,0,0,0,0,0,0,0,0,0,0,0,0,0,1073741890,0,0,0,0,0,0,0,0,0,0,0,0,0,0,0,0,0,0,0,0,0,0,0,0,0,0,0,0,0,0,0,0,0,0,0,0,0,0,0,0,0,0,
0,0,0,0,0,0,0,0,0,0,0,0,3221225538,0,0,0,0,0,0,2147483713,0,0,0,91,0,0,91,0,0,0,0,0,0,0,0,91,0,0,91,0,0,0,0,0,0,91,0,0,91,0,0,91,0,0,91,0,0,91,0,0,91,0,0,91,0,0,91,0,0,0,
0,0,0,0,0,0,0,0,0,0,0,0,0,0,0,0,0,0,0,0,0,0,0,0,0,0,0,0,0,0,0,0,0,0,0,0,0,0,0,0,0,0,0,0,0,50,0,0,0,0,0,60,0,0,0,0,0,0,0,0,0,0,0,0,0,0,50,0,0,0,
0,0,0,0,0,0,0,0,0,0,0,0,0,0,0,0,0,0,0,0,0,0,0,0,0,0,0,0,0,0,0,0,0,0,0,0,0,0,0,0,0,0,0,0,0,0,0,0,0,0,0,0,0,0,0,0,0,0,0,0,0,0,0,0,0,0,0,0,0,0,
0,0,0,0,0,0,0,0,0,0,0,0,0,0,0,0,0,0,0,0,0,0,0,0,0,0,0,0,0,0,0,0,0,0,0,0,0,0,0,0,0,0,0,0,0,0,0,0,0,0,0,0,0,0,0,0,0,0,0,0,0,0,0,0,0,0,0,0,0,0,
0,0,0,0,0,0,0,0,0,0,0,0,0,0,0,0,0,0,0,0,0,0,0,0,0,0,0,0,0,91,0,0,91,0,0,0,0,0,0,0,0,0,0,0,0,0,0,0,0,0,0,0,0,0,0,0,0,0,0,0,0,0,0,0,0,0,0,0,0,0,
0,0,0,0,0,0,0,0,0,0,0,0,0,0,0,0,0,0,0,0,0,0,0,0,0,0,0,0,0,0,0,0,0,0,0,0,0,0,0,0,0,0,0,0,0,0,0,0,0,0,0,0,0,0,0,0,0,0,0,0,0,0,0,0,0,0,0,0,0,0,
0,0,0,0,0,0,0,0,0,0,0,0,0,0,0,0,0,0,0,0,0,0,0,0,0,0,0,0,0,0,0,0,0,0,0,0,0,0,0,0,0,0,0,0,0,0,0,0,0,0,0,0,0,0,60,0,0,0,0,0,0,0,0,0,0,0,0,0,0,0,
0,0,0,0,0,0,0,0,0,0,0,0,0,0,0,0,0,0,0,0,0,0,0,0,0,0,0,0,0,0,0,0,0,0,0,0,0,0,0,0,0,0,0,0,0,94,0,0,94,0,0,94,0,0,94,0,0,0,0,0,0,0,0,94,0,0,94,0,0,0,
0,0,0,0,0,0,0,0,0,0,0,0,0,0,0,0,0,0,0,0,0,0,0,92,0,0,0,0,0,0,0,0,0,0,0,0,0,0,2147483740,0,0,0,0,0,0,0,0,0,0,0,0,0,0,0,0,0,0,0,0,0,0,0,0,0,0,0,0,0,0,0,
0,0,0,0,0,0,0,0,0,0,0,0,0,0,0,0,0,0,0,0,0,0,0,0,0,0,0,0,0,0,0,0,0,0,0,0,0,0,0,0,0,0,0,0,0,0,0,0,0,0,0,0,0,0,0,0,0,0,0,0,0,0,0,0,94,0,0,0,0,0,
0,0,0,0,0,0,0,0,0,0,0,0,0,0,0,0,0,0,0,0,0,0,0,0,0,0,0,0,0,0,0,0,0,0,0,0,0,0,0,0,0,0,0,0,0,0,0,0,0,0,0,0,0,0,0,0,0,0,0,0,0,0,0,0,0,0,0,0,0,0,
0,0,0,0,0,0,0,0,0,0,0,0,0,0,0,0,0,0,0,0,0,0,0,0,0,0,0,0,0,0,0,0,0,0,0,0,0,0,0,0,0,0,0,0,0,0,0,0,0,0,0,0,0,0,0,0,0,0,0,0,0,0,0,0,0,0,0,0,0,0,
0,0,0,0,0,0,0,0,0,0,0,0,0,0,0,0,0,0,0,0,0,0,0,0,0,0,0,0,0,0,0,0,0,0,0,0,0,0,0,0,0,0,0,0,0,0,0,0,0,0,0,0,0,0,0,0,0,0,0,0,0,0,0,0,0,0,0,0,0,0,
0,0,0,0,0,0,0,0,0,0,0,0,0,0,0,0,0,0,0,0,0,0,0,0,0,0,0,0,0,0,0,0,0,0,0,0,0,0,0,0,0,0,0,0,0,0,0,0,0,0,0,0,0,0,0,0,0,0,0,0,0,0,0,0,0,0,0,0,0,0,
0,0,0,0,0,0,0,0,0,0,0,0,0,0,0,0,0,0,0,0,0,0,0,0,0,0,0,0,0,0,0,0,0,0,0,0,0,0,0,0,0,0,0,0,0,0,0,0,0,0,0,0,0,0,0,0,0,0,0,0,0,0,0,0,0,0,0,2147483740,0,0,
0,0,0,0,0,0,0,0,0,0,0,0,0,0,0,0,0,0,0,0,0,0,0,0,0,0,0,0,0,0,0,0,0,0,0,0,0,0,0,0,0,0,0,0,0,0,0,0,0,0,0,0,0,0,0,0,0,0,0,0,0,0,0,0,0,0,0,0,0,0,
0,0,0,0,0,0,0,0,0,0,0,0,0,0,0,0,0,0,0,0,0,0,0,0,0,0,0,0,0,0,0,0,0,0,2147483740,0,0,0,0,0,0,0,0,92,0,0,0,0,0,0,0,0,0,0,0,0,0,0,0,0,0,0,0,0,0,0,0,0,0,0,
0,0,0,0,0,0,0,0,0,0,0,0,0,0,0,0,0,0,0,0,0,0,0,0,0,0,0,0,0,0,0,0,0,0,0,0,0,0,0,0,0,0,0,0,0,0,0,0,0,0,0,0,0,0,0,0,0,0,0,0,0,0,0,0,0,0,0,0,0,0,
0,0,0,0,0,0,0,0,0,0,0,0,0,0,0,0,0,0,0,0,0,0,0,0,0,0,0,0,0,0,0,0,0,0,0,0,0,0,0,0,0,0,0,0,0,0,0,0,0,0,0,0,0,0,0,0,0,0,0,0,0,0,0,0,0,0,0,0,0,0,
0,0,0,0,0,0,0,0,0,0,0,0,0,0,0,0,0,0,0,0,0,0,0,0,0,0,0,0,0,0,0,0,0,0,0,0,0,0,0,0,0,0,0,0,0,0,0,0,0,0,0,0,0,0,0,0,0,0,0,0,0,0,0,0,0,0,0,0,0,0,
0,0,0,0,0,0,0,0,0,0,0,0,0,0,0,0,0,0,0,0,0,0,0,0,0,0,0,0,0,0,0,0,0,0,0,0,0,0,0,0,0,0,0,0,0,0,0,0,0,0,0,0,0,0,0,0,0,0,0,0,0,0,0,0,0,0,0,0,0,0,
0,0,0,0,0,0,0,0,0,0,0,0,0,0,0,0,0,0,0,0,0,0,0,0,0,0,0,0,0,0,0,0,0,0,2147483740,0,0,0,0,0,0,0,0,92,0,0,0,0,0,0,0,0,0,0,0,0,0,0,0,0,0,0,0,0,0,0,0,0,0,0,
0,0,0,0,0,0,0,0,0,0,0,0,0,0,0,0,0,0,0,0,0,0,0,0,0,0,0,0,0,0,0,0,0,0,0,0,0,0,0,0,0,0,0,0,0,0,0,0,0,0,0,0,0,0,0,0,0,0,0,0,0,0,0,0,0,0,0,2147483740,0,0,
0,0,0,0,0,0,0,0,0,0,0,0,0,0,0,0,0,0,0,0,0,0,0,0,0,0,0,0,0,0,0,0,0,0,0,0,0,0,0,0,0,0,0,0,0,0,0,0,0,0,0,0,0,0,0,0,0,0,0,0,0,0,0,0,0,0,0,0,0,0,
0,0,0,0,0,0,0,0,0,0,0,0,0,0,0,0,0,0,0,0,0,0,0,0,0,0,0,0,0,0,0,0,0,0,0,0,0,0,0,0,0,0,0,0,0,0,0,0,0,0,0,0,0,0,0,0,0,0,0,0,0,0,0,0,0,0,0,0,0,0,
0,0,0,0,0,0,0,0,0,0,0,0,0,0,0,0,0,0,0,0,0,0,0,0,0,0,0,0,0,0,0,0,0,0,0,0,0,0,0,0,0,0,0,0,0,0,0,0,0,0,0,0,0,0,0,0,0,0,0,0,0,0,0,0,0,0,0,0,0,0,
0,0,0,0,0,0,0,0,0,0,0,0,0,0,0,0,0,0,0,0,0,0,0,0,0,0,0,0,0,0,0,0,0,0,0,0,0,0,0,0,0,0,0,0,0,0,0,0,0,0,0,0,0,0,0,0,0,0,0,0,0,0,0,0,0,0,0,0,0,0,
0,0,0,0,0,0,0,0,0,0,0,0,0,0,0,0,0,0,0,0,0,0,0,0,0,0,0,0,0,0,0,0,0,0,0,0,0,0,0,0,0,0,0,0,0,0,0,0,0,0,0,0,0,0,0,0,0,0,0,0,0,0,0,0,0,0,0,0,0,0,
0,0,0,0,0,0,0,0,0,0,0,0,0,0,0,0,0,0,0,0,0,0,0,0,0,0,0,0,0,0,0,0,0,0,0,0,0,0,0,0,0,0,0,0,0,0,0,0,0,0,0,0,0,0,0,0,0,0,0,0,0,0,0,0,0,0,0,0,0,0,
0,0,0,0,0,0,0,0,0,0,0,0,0,0,0,0,0,0,0,0,0,0,0,0,0,0,0,0,0,0,0,0,0,0,0,0,0,0,0,0,0,0,0,0,0,0,0,0,0,0,0,0,0,0,0,0,0,0,0,0,0,0,0,0,0,0,0,0,0,0,
0,0,0,0,0,0,0,0,0,0,0,0,0,0,0,0,0,0,0,0,0,0,0,0,0,0,0,0,0,0,0,0,0,0,0,0,0,0,0,0,0,0,0,0,0,0,0,0,0,0,0,0,0,0,0,0,0,0,0,0,0,0,0,0,0,0,0,0,0,0,
0,0,0,0,0,0,0,0,0,0,0,0,0,0,0,0,0,0,0,0,0,0,0,0,0,0,0,0,0,0,0,0,0,0,0,0,0,0,0,0,0,0,0,0,0,0,0,0,0,0,0,0,0,0,0,0,0,0,0,0,0,0,0,0,0,0,0,0,0,0,
0,0,0,0,0,0,0,0,0,0,0,0,0,0,0,0,0,0,0,0,0,0,0,0,0,0,0,0,0,0,0,0,0,0,0,0,0,0,0,0,0,0,0,0,0,0,0,0,0,0,0,0,0,0,0,0,0,0,0,0,0,0,0,0,0,0,0,0,0,0,
0,0,0,0,0,0,0,0,0,0,0,0,0,0,0,0,0,0,0,0,0,0,0,0,0,0,0,0,0,0,0,0,0,0,0,0,0,0,0,0,0,0,0,0,0,0,0,0,0,0,0,0,0,0,0,0,0,0,0,0,0,0,0,0,0,0,0,0,0,0,
0,0,0,0,0,0,0,0,0,0,0,0,0,0,0,0,0,0,0,0,0,0,0,0,0,0,0,0,0,0,0,0,0,0,0,0,0,0,0,0,0,0,0,0,0,0,0,0,0,0,0,0,0,0,0,0,0,0,0,0,0,0,0,0,0,0,0,0,0,0,
0,0,0,0,0,0,0,0,0,0,0,0,0,0,0,0,0,0,0,0,0,0,0,0,0,0,0,0,0,0,0,0,0,0,0,0,0,0,0,0,0,0,0,0,0,0,0,0,0,0,0,0,0,0,0,0,0,0,0,0,0,0,0,0,0,0,0,0,0,0,
0,0,0,0,0,0,0,0,0,0,0,0,0,0,0,0,0,0,0,0,0,0,0,0,0,0,0,0,0,0,0,0,0,0,0,0,0,0,0,0,0,0,0,0,0,0,0,0,0,0,0,0,0,0,0,0,0,0,0,0,0,0,0,0,0,0,0,0,0,0,
0,0,0,0,0,0,0,0,0,0,0,0,0,0,0,0,0,0,0,0,0,0,0,0,0,0,0,0,0,0,0,0,0,0,0,0,0,0,0,0,0,0,0,0,0,0,0,0,0,0,0,0,0,0,0,0,0,0,0,0,0,0,0,0,0,0,0,0,0,0,
0,0,0,0,0,0,0,0,0,0,0,0,0,0,0,0,0,0,0,0,0,0,0,0,0,0,0,0,0,0,0,0,0,0,0,0,0,0,0,0,0,0,0,0,0,0,0,0,0,0,0,0,0,0,0,0,0,0,0,0,0,0,0,0,0,0,0,0,0,0,
0,0,0,0,0,0,0,0,0,0,0,0,0,0,0,0,0,0,0,0,0,0,0,0,0,0,0,0,0,0,0,0,0,0,0,0,0,0,0,0,0,0,0,0,0,0,0,0,0,0,0,0,0,0,0,0,0,0,0,0,0,0,0,0,0,0,0,0,0,0,
0,0,0,0,0,0,0,0,0,0,0,0,0,0,0,0,0,0,0,0,0,0,0,0,0,0,0,0,0,0,0,0,0,0,0,0,0,0,0,0,0,0,0,0,0,0,0,0,0,0,0,0,0,0,0,0,0,0,0,0,0,0,0,0,0,0,0,0,0,0,
0,0,0,0,0,0,0,0,0,0,0,0,0,0,0,0,0,0,0,0,0,0,0,0,0,0,0,0,0,0,0,0,0,0,0,0,0,0,0,0,0,0,0,0,0,0,0,0,0,0,0,0,0,0,0,0,0,0,0,0,0,0,0,0,0,0,0,0,0,0,
0,0,0,0,0,0,0,0,0,0,0,0,0,0,0,0,0,0,0,0,0,0,0,0,0,0,0,0,0,0,0,0,0,0,0,0,0,0,0,0,0,0,0,0,0,0,0,0,0,0,0,0,0,0,0,0,0,0,0,0,0,0,0,0,0,0,0,0,0,0,
0,0,0,0,0,0,0,0,0,0,0,0,0,0,0,0,0,0,0,0,0,0,0,0,0,0,0,0,0,0,0,0,0,0,0,0,0,0,0,0,0,0,0,0,0,0,0,0,0,0,0,0,0,0,0,0,0,0,0,0,0,0,0,0,0,0,0,0,0,0,
0,0,0,0,0,0,0,0,0,0,0,0,0,0,0,0,0,0,0,0,0,0,0,0,0,0,0,0,0,0,0,0,0,0,0,0,0,0,0,0,0,0,0,0,0,0,0,0,0,0,0,0,0,0,0,0,0,0,0,0,0,0,0,0,0,0,0,0,0,0,
0,0,0,0,0,0,0,0,0,0,0,0,0,0,0,0,0,0,0,0,0,0,0,0,0,0,0,0,0,0,0,0,0,0,0,0,0,0,0,0,0,0,0,0,0,0,0,0,0,0,0,0,0,0,0,0,0,0,0,0,0,0,0,0,0,0,0,0,0,0,
0,0,0,0,0,0,0,0,0,0,0,0,0,0,0,0,0,0,0,0,0,0,0,0,0,0,0,0,0,0,0,0,0,0,0,0,0,0,0,0,0,0,0,0,0,0,0,0,0,0,0,0,0,0,0,0,0,0,0,0,0,0,0,0,0,0,0,0,0,0,
0,0,0,0,0,0,0,0,0,0,0,0,0,0,0,0,0,0,0,0,0,0,0,0,0,0,0,0,0,0,0,0,0,0,0,0,0,0,0,0,0,0,0,0,0,0,0,0,0,0,0,0,0,0,0,0,0,0,0,0,0,0,0,0,0,0,0,0,0,0,
0,0,0,0,0,0,0,0,0,0,0,0,0,0,0,0,0,0,0,0,0,0,0,0,0,0,0,0,0,0,0,0,0,0,0,0,0,0,0,0,0,0,0,0,0,0,0,0,0,0,0,0,0,0,0,0,0,0,0,0,0,0,0,0,0,0,0,0,0,0,
0,0,0,0,0,0,0,0,0,0,0,0,0,0,0,0,0,0,0,0,0,0,0,0,0,0,0,0,0,0,0,0,0,0,0,0,0,0,0,0,0,0,0,0,0,0,0,0,0,0,0,0,0,0,0,0,0,0,0,0,0,0,0,0,0,0,0,0,0,0,
0,0,0,0,0,0,0,0,0,0,0,0,0,0,0,0,0,0,0,0,0,0,0,0,0,0,0,0,0,0,0,0,0,0,0,0,0,0,0,0,0,0,0,0,0,0,0,0,0,0,0,0,0,0,0,0,0,0,0,0,0,0,0,0,0,0,0,0,0,0,
0,0,0,0,0,0,0,0,0,0,0,0,0,0,0,0,0,0,0,0,0,0,0,0,0,0,0,0,0,0,0,0,0,0,0,0,0,0,0,0,0,0,0,0,0,0,0,0,0,0,0,0,0,0,0,0,0,0,0,0,0,0,0,0,0,0,0,0,0,0,
0,0,0,0,0,0,0,0,0,0,0,0,0,0,0,0,0,0,0,0,0,0,0,0,0,0,0,0,0,0,0,0,0,0,0,0,0,0,0,0,0,0,0,0,0,0,0,0,0,0,0,0,0,0,0,0,0,0,0,0,0,0,0,0,0,0,0,0,0,0,
0,0,0,0,0,0,0,0,0,0,0,0,0,0,0,0,0,0,0,0,0,0,0,0,0,0,0,0,0,0,0,0,0,0,0,0,0,0,0,0,0,0,0,0,0,0,0,0,0,0,0,0,0,0,0,0,0,0,0,0,0,0,0,0,0,0,0,0,0,0,
0,0,0,0,0,0,0,0,0,0,0,0,0,0,0,0,0,0,0,0,0,0,0,0,0,0,0,0,0,0,0,0,0,0,0,0,0,0,0,0,0,0,0,0,0,0,0,0,0,0,0,0,0,0,0,0,0,0,0,0,0,0,0,0,0,0,0,0,0,0,
0,0,0,0,0,0,0,0,0,0,0,0,0,0,0,0,0,0,0,0,0,0,0,0,0,0,0,0,0,0,0,0,0,0,0,0,0,0,0,0,0,0,0,0,0,0,0,0,0,0,0,0,0,0,0,0,0,0,0,0,0,0,0,0,0,0,0,0,0,0,
0,0,0,0,0,0,0,0,0,0,0,0,0,0,0,0,0,0,0,0,0,0,0,0,0,0,0,0,0,0,0,0,0,0,0,0,0,0,0,0,0,0,0,0,0,0,0,0,0,0,0,0,0,0,0,0,0,0,0,0,0,0,0,0,0,0,0,0,0,0,
0,0,0,0,0,0,0,0,0,0,0,0,0,0,0,0,0,0,0,0,0,0,0,0,0,0,0,0,0,0,0,0,0,0,0,0,0,0,0,0,0,0,0,0,0,0,0,0,0,0,0,0,0,0,0,0,0,0,0,0,0,0,0,0,0,0,0,0,0,0,
0,0,0,0,0,0,0,0,0,0,0,0,0,0,0,0,0,0,0,0,0,0,0,0,0,0,0,0,0,0,0,0,0,0,0,0,0,0,0,0,0,0,0,0,0,0,0,0,0,0,0,0,0,0,0,0,0,0,0,0,0,0,0,0,0,0,0,0,0,0,
0,0,0,0,0,0,0,0,0,0,0,0,0,0,0,0,0,0,0,0,0,0,0,0,0,0,0,0,0,0,0,0,0,0,0,0,0,0,0,0,0,0,0,0,0,0,0,0,0,0,0,0,0,0,0,0,0,0,0,0,0,0,0,0,0,0,0,0,0,0,
0,0,0,0,0,0,0,0,0,0,0,0,0,0,0,0,0,0,0,0,0,0,0,0,0,0,0,0,0,0,0,0,0,0,0,0,0,0,0,0,0,0,0,0,0,0,0,0,0,0,0,0,0,0,0,0,0,0,0,0,0,0,0,0,0,0,0,0,0,0,
0,0,0,0,0,0,0,0,0,0,0,0,0,0,0,0,0,0,0,0,0,0,0,0,0,0,0,0,0,0,0,0,0,0,0,0,0,0,0,0,0,0,0,0,0,0,0,0,0,0,0,0,0,0,0,0,0,0,0,0,0,0,0,0,0,0,0,0,0,0,
0,0,0,0,0,0,0,0,0,0,0,0,0,0,0,0,0,0,0,0,0,0,0,0,0,0,0,0,0,0,0,0,0,0,0,0,0,0,0,0,0,0,0,0,0,0,0,0,0,0,0,0,0,0,0,0,0,0,0,0,0,0,0,0,0,0,0,0,0,0,
0,0,0,0,0,0,0,0,0,0,0,0,0,0,0,0,0,0,0,0,0,0,0,0,0,0,0,0,0,0,0,0,0,0,0,0,0,0,0,0,0,0,0,0,0,0,0,0,0,0,0,0,0,0,0,0,0,0,0,0,0,0,0,0,0,0,0,0,0,0,
0,0,0,0,0,0,0,0,0,0,0,0,0,0,0,0,0,0,0,0,0,0,0,0,0,0,0,0,0,0,0,0,0,0,0,0,0,0,0,0,0,0,0,0,0,0,0,0,0,0,0,0,0,0,0,0,0,0,0,0,0,0,0,0,0,0,0,0,0,0,
0,0,0,0,0,0,0,0,0,0,0,0,0,0,0,0,0,0,0,0,0,0,0,0,0,0,0,0,0,0,0,0,0,0,0,0,0,0,0,0,0,0,0,0,0,0,0,0,0,0,0,0,0,0,0,0,0,0,0,0,0,0,0,0,0,0,0,0,0,0,
0,0,0,0,0,0,0,0,0,0,0,0,0,0,0,0,0,0,0,0,0,0,0,0,0,0,0,0,0,0,0,0,0,0,0,0,0,0,0,0,0,0,0,0,0,0,0,0,0,0,0,0,0,0,0,0,0,0,0,0,0,0,0,0,0,0,0,0,0,0
</data>
 </layer>
 <objectgroup id="4" name="graph">
  <object id="1053" type="Node" x="368" y="144">
   <properties>
    <property name="tactical" value="exposed"/>
   </properties>
   <polygon points="0,0 0,-16 16,-32 48,-32 64,-16 64,0 48,16 16,16"/>
  </object>
  <object id="1771" type="Node" x="272" y="144">
   <properties>
    <property name="tactical" value="exposed"/>
   </properties>
   <polygon points="0,0 0,-16 16,-32 48,-32 64,-16 64,0 48,16 16,16"/>
  </object>
  <object id="1780" type="Node" x="176" y="144">
   <polygon points="0,0 0,-16 16,-32 48,-32 64,-16 64,0 48,16 16,16"/>
  </object>
  <object id="1123" type="Node" x="560" y="144">
   <polygon points="0,0 0,-16 16,-32 48,-32 64,-16 64,0 48,16 16,16"/>
  </object>
  <object id="1800" type="Node" x="464" y="144">
   <polygon points="0,0 0,-16 16,-32 48,-32 64,-16 64,0 48,16 16,16"/>
  </object>
  <object id="1180" type="Node" x="720" y="144">
   <polygon points="0,0 0,-16 16,-32 48,-32 64,-16 64,0 48,16 16,16"/>
  </object>
  <object id="1339" type="Node" x="672" y="384">
   <properties>
    <property name="tactical" value="cover"/>
   </properties>
   <polygon points="0,0 0,16 16,32 48,32 64,16 64,0 48,-16 16,-16"/>
  </object>
  <object id="2005" type="Node" x="672" y="448">
   <polygon points="0,0 0,16 16,32 48,32 64,16 64,0 48,-16 16,-16"/>
  </object>
  <object id="1335" type="Node" x="672" y="528">
   <properties>
    <property name="tactical" value="sentry"/>
   </properties>
   <polygon points="0,0 0,-16 16,-32 48,-32 64,-16 64,0 48,16 16,16"/>
  </object>
  <object id="1277" type="Node" x="816" y="560">
   <polygon points="0,0 0,-16 16,-32 48,-32 64,-16 64,0 48,16 16,16"/>
  </object>
  <object id="1391" type="Node" x="768" y="800">
   <polygon points="0,0 0,-16 16,-32 48,-32 64,-16 64,0 48,16 16,16"/>
  </object>
  <object id="1405" type="Node" x="864" y="800">
   <polygon points="0,0 0,-16 16,-32 48,-32 64,-16 64,0 48,16 16,16"/>
  </object>
  <object id="1424" type="Node" x="960" y="800">
   <polygon points="0,0 0,-16 16,-32 48,-32 64,-16 64,0 48,16 16,16"/>
  </object>
  <object id="1389" type="Node" x="768" y="864">
   <polygon points="0,0 0,-16 16,-32 48,-32 64,-16 64,0 48,16 16,16"/>
  </object>
  <object id="1401" type="Node" x="864" y="864">
   <polygon points="0,0 0,-16 16,-32 48,-32 64,-16 64,0 48,16 16,16"/>
  </object>
  <object id="1420" type="Node" x="960" y="864">
   <polygon points="0,0 0,-16 16,-32 48,-32 64,-16 64,0 48,16 16,16"/>
  </object>
  <object id="1283" type="Node" x="912" y="560">
   <polygon points="0,0 0,-16 16,-32 48,-32 64,-16 64,0 48,16 16,16"/>
  </object>
  <object id="1308" type="Node" x="960" y="528">
   <properties>
    <property name="tactical" value="exposed"/>
   </properties>
   <polygon points="0,0 0,-16 16,-32 48,-32 64,-16 64,0 48,16 16,16"/>
  </object>
  <object id="1306" type="Node" x="864" y="384">
   <polygon points="0,0 0,16 16,32 48,32 64,16 64,0 48,-16 16,-16"/>
  </object>
  <object id="1186" type="Node" x="816" y="144">
   <properties>
    <property name="tactical" value="exposed"/>
   </properties>
   <polygon points="0,0 0,-16 16,-32 48,-32 64,-16 64,0 48,16 16,16"/>
  </object>
  <object id="1198" type="Node" x="1008" y="144">
   <properties>
    <property name="tactical" value="exposed"/>
   </properties>
   <polygon points="0,0 0,-16 16,-32 48,-32 64,-16 64,0 48,16 16,16"/>
  </object>
  <object id="1054" type="Node" x="368" y="80">
   <properties>
    <property name="tactical" value="exposed"/>
   </properties>
   <polygon points="0,0 0,-16 16,-32 48,-32 64,-16 64,0 48,16 16,16"/>
  </object>
  <object id="1775" type="Node" x="272" y="80">
   <properties>
    <property name="tactical" value="exposed"/>
   </properties>
   <polygon points="0,0 0,-16 16,-32 48,-32 64,-16 64,0 48,16 16,16"/>
  </object>
  <object id="1782" type="Node" x="176" y="80">
   <polygon points="0,0 0,-16 16,-32 48,-32 64,-16 64,0 48,16 16,16"/>
  </object>
  <object id="1139" type="Node" x="560" y="80">
   <polygon points="0,0 0,-16 16,-32 48,-32 64,-16 64,0 48,16 16,16"/>
  </object>
  <object id="1807" type="Node" x="512" y="112">
   <properties>
    <property name="tactical" value="exposed"/>
   </properties>
   <polygon points="0,0 0,-16 16,-32 48,-32 64,-16 64,0 48,16 16,16"/>
  </object>
  <object id="1802" type="Node" x="464" y="80">
   <polygon points="0,0 0,-16 16,-32 48,-32 64,-16 64,0 48,16 16,16"/>
  </object>
  <object id="1182" type="Node" x="720" y="80">
   <polygon points="0,0 0,-16 16,-32 48,-32 64,-16 64,0 48,16 16,16"/>
  </object>
  <object id="1241" type="Node" x="720" y="480">
   <polygon points="0,0 0,16 16,32 48,32 64,16 64,0 48,-16 16,-16"/>
  </object>
  <object id="1254" type="Node" x="816" y="480">
   <polygon points="0,0 0,16 16,32 48,32 64,16 64,0 48,-16 16,-16"/>
  </object>
  <object id="1381" type="Node" x="720" y="752">
   <properties>
    <property name="tactical" value="exposed"/>
   </properties>
   <polygon points="0,0 0,16 16,32 48,32 64,16 64,0 48,-16 16,-16"/>
  </object>
  <object id="1408" type="Node" x="816" y="752">
   <properties>
    <property name="tactical" value="exposed"/>
   </properties>
   <polygon points="0,0 0,16 16,32 48,32 64,16 64,0 48,-16 16,-16"/>
  </object>
  <object id="1427" type="Node" x="912" y="752">
   <properties>
    <property name="tactical" value="exposed"/>
   </properties>
   <polygon points="0,0 0,16 16,32 48,32 64,16 64,0 48,-16 16,-16"/>
  </object>
  <object id="1446" type="Node" x="1008" y="752">
   <properties>
    <property name="tactical" value="exposed"/>
   </properties>
   <polygon points="0,0 0,16 16,32 48,32 64,16 64,0 48,-16 16,-16"/>
  </object>
  <object id="1393" type="Node" x="768" y="720">
   <polygon points="0,0 0,16 16,32 48,32 64,16 64,0 48,-16 16,-16"/>
  </object>
  <object id="1410" type="Node" x="864" y="720">
   <polygon points="0,0 0,16 16,32 48,32 64,16 64,0 48,-16 16,-16"/>
  </object>
  <object id="1429" type="Node" x="960" y="720">
   <polygon points="0,0 0,16 16,32 48,32 64,16 64,0 48,-16 16,-16"/>
  </object>
  <object id="1300" type="Node" x="768" y="512">
   <polygon points="0,0 0,16 16,32 48,32 64,16 64,0 48,-16 16,-16"/>
  </object>
  <object id="1287" type="Node" x="912" y="480">
   <polygon points="0,0 0,16 16,32 48,32 64,16 64,0 48,-16 16,-16"/>
  </object>
  <object id="1312" type="Node" x="960" y="448">
   <polygon points="0,0 0,16 16,32 48,32 64,16 64,0 48,-16 16,-16"/>
  </object>
  <object id="1302" type="Node" x="864" y="448">
   <polygon points="0,0 0,16 16,32 48,32 64,16 64,0 48,-16 16,-16"/>
  </object>
  <object id="1188" type="Node" x="816" y="80">
   <properties>
    <property name="tactical" value="exposed"/>
   </properties>
   <polygon points="0,0 0,-16 16,-32 48,-32 64,-16 64,0 48,16 16,16"/>
  </object>
  <object id="1200" type="Node" x="1008" y="80">
   <properties>
    <property name="tactical" value="exposed"/>
   </properties>
   <polygon points="0,0 0,-16 16,-32 48,-32 64,-16 64,0 48,16 16,16"/>
  </object>
  <object id="1055" type="Node" x="384" y="32">
   <polygon points="0,0 32,0 32,16 0,16"/>
  </object>
  <object id="1778" type="Node" x="288" y="32">
   <polygon points="0,0 32,0 32,16 0,16"/>
  </object>
  <object id="1783" type="Node" x="192" y="32">
   <properties>
    <property name="tactical" value="cover"/>
   </properties>
   <polygon points="0,0 32,0 32,16 0,16"/>
  </object>
  <object id="1152" type="Node" x="576" y="32">
   <polygon points="0,0 32,0 32,16 0,16"/>
  </object>
  <object id="1803" type="Node" x="480" y="32">
   <properties>
    <property name="tactical" value="cover"/>
   </properties>
   <polygon points="0,0 32,0 32,16 0,16"/>
  </object>
  <object id="1183" type="Node" x="736" y="32">
   <polygon points="0,0 32,0 32,16 0,16"/>
  </object>
  <object id="1252" type="Node" x="832" y="528">
   <polygon points="0,0 32,0 32,-16 0,-16"/>
  </object>
  <object id="1392" type="Node" x="784" y="768">
   <properties>
    <property name="tactical" value="exposed"/>
   </properties>
   <polygon points="0,0 32,0 32,-16 0,-16"/>
  </object>
  <object id="1483" type="Node" x="688" y="768">
   <polygon points="0,0 32,0 32,-16 0,-16"/>
  </object>
  <object id="2070" type="Node" x="688" y="816">
   <polygon points="0,0 32,0 32,16 0,16"/>
  </object>
  <object id="1407" type="Node" x="880" y="768">
   <properties>
    <property name="tactical" value="exposed"/>
   </properties>
   <polygon points="0,0 32,0 32,-16 0,-16"/>
  </object>
  <object id="1426" type="Node" x="976" y="768">
   <properties>
    <property name="tactical" value="exposed"/>
   </properties>
   <polygon points="0,0 32,0 32,-16 0,-16"/>
  </object>
  <object id="1298" type="Node" x="784" y="560">
   <polygon points="0,0 32,0 32,-16 0,-16"/>
  </object>
  <object id="1285" type="Node" x="928" y="528">
   <polygon points="0,0 32,0 32,-16 0,-16"/>
  </object>
  <object id="1327" type="Node" x="1024" y="528">
   <properties>
    <property name="tactical" value="exposed"/>
   </properties>
   <polygon points="0,0 32,0 32,-16 0,-16"/>
  </object>
  <object id="1310" type="Node" x="976" y="496">
   <properties>
    <property name="tactical" value="exposed"/>
   </properties>
   <polygon points="0,0 32,0 32,-16 0,-16"/>
  </object>
  <object id="1320" type="Node" x="976" y="560">
   <properties>
    <property name="tactical" value="exposed"/>
   </properties>
   <polygon points="0,0 32,0 32,-16 0,-16"/>
  </object>
  <object id="1189" type="Node" x="832" y="32">
   <polygon points="0,0 32,0 32,16 0,16"/>
  </object>
  <object id="1201" type="Node" x="1024" y="32">
   <polygon points="0,0 32,0 32,16 0,16"/>
  </object>
  <object id="1059" type="Node" x="384" y="96">
   <properties>
    <property name="tactical" value="exposed"/>
   </properties>
   <polygon points="0,0 32,0 32,16 0,16"/>
  </object>
  <object id="1773" type="Node" x="288" y="96">
   <properties>
    <property name="tactical" value="exposed"/>
   </properties>
   <polygon points="0,0 32,0 32,16 0,16"/>
  </object>
  <object id="1136" type="Node" x="576" y="96">
   <polygon points="0,0 32,0 32,16 0,16"/>
  </object>
  <object id="1806" type="Node" x="528" y="128">
   <properties>
    <property name="tactical" value="exposed"/>
   </properties>
   <polygon points="0,0 32,0 32,16 0,16"/>
  </object>
  <object id="1801" type="Node" x="480" y="96">
   <polygon points="0,0 32,0 32,16 0,16"/>
  </object>
  <object id="1181" type="Node" x="736" y="96">
   <polygon points="0,0 32,0 32,16 0,16"/>
  </object>
  <object id="1240" type="Node" x="736" y="464">
   <polygon points="0,0 32,0 32,-16 0,-16"/>
  </object>
  <object id="1338" type="Node" x="688" y="432">
   <polygon points="0,0 32,0 32,-16 0,-16"/>
  </object>
  <object id="1336" type="Node" x="688" y="480">
   <polygon points="0,0 32,0 32,16 0,16"/>
  </object>
  <object id="1256" type="Node" x="832" y="464">
   <polygon points="0,0 32,0 32,-16 0,-16"/>
  </object>
  <object id="1382" type="Node" x="736" y="736">
   <properties>
    <property name="tactical" value="sentry"/>
   </properties>
   <polygon points="0,0 32,0 32,-16 0,-16"/>
  </object>
  <object id="1409" type="Node" x="832" y="736">
   <properties>
    <property name="tactical" value="sentry"/>
   </properties>
   <polygon points="0,0 32,0 32,-16 0,-16"/>
  </object>
  <object id="1428" type="Node" x="928" y="736">
   <properties>
    <property name="tactical" value="sentry"/>
   </properties>
   <polygon points="0,0 32,0 32,-16 0,-16"/>
  </object>
  <object id="1447" type="Node" x="1024" y="736">
   <properties>
    <property name="tactical" value="sentry"/>
   </properties>
   <polygon points="0,0 32,0 32,-16 0,-16"/>
  </object>
  <object id="1394" type="Node" x="784" y="704">
   <polygon points="0,0 32,0 32,-16 0,-16"/>
  </object>
  <object id="1487" type="Node" x="688" y="704">
   <polygon points="0,0 32,0 32,-16 0,-16"/>
  </object>
  <object id="2073" type="Node" x="688" y="880">
   <polygon points="0,0 32,0 32,16 0,16"/>
  </object>
  <object id="1411" type="Node" x="880" y="704">
   <polygon points="0,0 32,0 32,-16 0,-16"/>
  </object>
  <object id="1430" type="Node" x="976" y="704">
   <polygon points="0,0 32,0 32,-16 0,-16"/>
  </object>
  <object id="1289" type="Node" x="928" y="464">
   <polygon points="0,0 32,0 32,-16 0,-16"/>
  </object>
  <object id="1331" type="Node" x="1024" y="464">
   <polygon points="0,0 32,0 32,-16 0,-16"/>
  </object>
  <object id="1304" type="Node" x="880" y="432">
   <polygon points="0,0 32,0 32,-16 0,-16"/>
  </object>
  <object id="1187" type="Node" x="832" y="96">
   <properties>
    <property name="tactical" value="exposed"/>
   </properties>
   <polygon points="0,0 32,0 32,16 0,16"/>
  </object>
  <object id="1199" type="Node" x="1024" y="96">
   <properties>
    <property name="tactical" value="exposed"/>
   </properties>
   <polygon points="0,0 32,0 32,16 0,16"/>
  </object>
  <object id="1340" type="Node" x="688" y="560">
   <polygon points="0,0 0,-16 32,-16 32,0"/>
  </object>
  <object id="1378" type="Node" x="736" y="864">
   <properties>
    <property name="tactical" value="sentry"/>
   </properties>
   <polygon points="0,0 0,-16 32,-16 32,0"/>
  </object>
  <object id="1402" type="Node" x="832" y="864">
   <properties>
    <property name="tactical" value="sentry"/>
   </properties>
   <polygon points="0,0 0,-16 32,-16 32,0"/>
  </object>
  <object id="1421" type="Node" x="928" y="864">
   <properties>
    <property name="tactical" value="sentry"/>
   </properties>
   <polygon points="0,0 0,-16 32,-16 32,0"/>
  </object>
  <object id="1440" type="Node" x="1024" y="864">
   <polygon points="0,0 0,-16 32,-16 32,0"/>
  </object>
  <object id="1390" type="Node" x="784" y="832">
   <polygon points="0,0 0,-16 32,-16 32,0"/>
  </object>
  <object id="1403" type="Node" x="880" y="832">
   <polygon points="0,0 0,-16 32,-16 32,0"/>
  </object>
  <object id="1422" type="Node" x="976" y="832">
   <polygon points="0,0 0,-16 32,-16 32,0"/>
  </object>
  <object id="1202" type="Node" x="768" y="96">
   <properties>
    <property name="tactical" value="exposed"/>
   </properties>
   <polygon points="0,0 16,-16 48,-16 64,0 64,16 48,32 16,32 0,16"/>
  </object>
  <object id="1209" type="Node" x="864" y="96">
   <polygon points="0,0 16,-16 48,-16 64,0 64,16 48,32 16,32 0,16"/>
  </object>
  <object id="1204" type="Node" x="784" y="64">
   <properties>
    <property name="tactical" value="exposed"/>
   </properties>
   <polygon points="0,0 32,0 32,16 0,16"/>
  </object>
  <object id="1210" type="Node" x="880" y="64">
   <polygon points="0,0 32,0 32,16 0,16"/>
  </object>
  <object id="1205" type="Node" x="784" y="128">
   <properties>
    <property name="tactical" value="exposed"/>
   </properties>
   <polygon points="0,0 32,0 32,16 0,16"/>
  </object>
  <object id="1208" type="Node" x="880" y="128">
   <polygon points="0,0 32,0 32,16 0,16"/>
  </object>
  <object id="1376" type="Node" x="784" y="480">
   <polygon points="0,0 32,0 32,16 0,16"/>
  </object>
  <object id="1525" type="Node" x="1056" y="848">
   <properties>
    <property name="tactical" value="cover"/>
   </properties>
   <polygon points="0,0 32,0 32,32 16,32 0,16"/>
  </object>
  <object id="1526" type="Node" x="1072" y="816">
   <properties>
    <property name="tactical" value="sentry"/>
   </properties>
   <polygon points="0,0 -16,-16 -16,-32 -48,-32 -48,-16 -64,0"/>
  </object>
  <object id="1527" type="Node" x="912" y="816">
   <properties>
    <property name="tactical" value="sentry"/>
   </properties>
   <polygon points="0,0 16,-16 16,-32 48,-32 48,-16 64,0"/>
  </object>
  <object id="1528" type="Node" x="880" y="816">
   <properties>
    <property name="tactical" value="sentry"/>
   </properties>
   <polygon points="0,0 -64,0 -48,-16 -48,-32 -16,-32 -16,-16"/>
  </object>
  <object id="1529" type="Node" x="784" y="816">
   <properties>
    <property name="tactical" value="sentry"/>
   </properties>
   <polygon points="0,0 -64,0 -48,-16 -48,-32 -16,-32 -16,-16"/>
  </object>
  <object id="1531" type="Node" x="912" y="416">
   <properties>
    <property name="tactical" value="sentry"/>
   </properties>
   <polygon points="0,0 16,-16 16,-32 48,-32 48,-16 64,0"/>
  </object>
  <object id="1532" type="Node" x="976" y="416">
   <polygon points="0,0 32,0 48,-16 48,-32 32,-48 0,-48 -16,-32 -16,-16"/>
  </object>
  <object id="1544" type="Node" x="736" y="400">
   <polygon points="0,0 -16,16 -16,32 0,48 32,48 48,32 48,16 32,0"/>
  </object>
  <object id="1545" type="Node" x="816" y="416">
   <polygon points="0,0 16,-16 48,-16 64,0 64,16 48,32 16,32 0,16"/>
  </object>
  <object id="1548" type="Node" x="736" y="608">
   <polygon points="0,0 32,0 32,32 0,32"/>
  </object>
  <object id="1550" type="Node" x="1024" y="608">
   <polygon points="0,0 32,0 32,32 0,32"/>
  </object>
  <object id="1552" type="Node" x="816" y="368">
   <properties>
    <property name="tactical" value="sentry"/>
   </properties>
   <polygon points="0,0 64,0 48,16 48,32 16,32 16,16"/>
  </object>
  <object id="1554" type="Node" x="720" y="368">
   <polygon points="0,0 64,0 48,16 48,32 16,32 16,16"/>
  </object>
  <object id="1572" type="Node" x="560" y="480">
   <polygon points="0,0 -32,0 -32,16 0,16"/>
  </object>
  <object id="1599" type="Node" x="464" y="480">
   <properties>
    <property name="tactical" value="exposed"/>
   </properties>
   <polygon points="0,0 -32,0 -32,16 0,16"/>
  </object>
  <object id="2483" type="Node" x="688" y="1088">
   <properties>
    <property name="tactical" value="exposed"/>
   </properties>
   <polygon points="0,0 -32,0 -32,16 0,16"/>
  </object>
  <object id="2491" type="Node" x="784" y="1088">
   <properties>
    <property name="tactical" value="exposed"/>
   </properties>
   <polygon points="0,0 -32,0 -32,16 0,16"/>
  </object>
  <object id="2499" type="Node" x="880" y="1088">
   <properties>
    <property name="tactical" value="exposed"/>
   </properties>
   <polygon points="0,0 -32,0 -32,16 0,16"/>
  </object>
  <object id="2515" type="Node" x="1072" y="1088">
   <polygon points="0,0 -32,0 -32,16 0,16"/>
  </object>
  <object id="1613" type="Node" x="368" y="480">
   <properties>
    <property name="tactical" value="exposed"/>
   </properties>
   <polygon points="0,0 -32,0 -32,16 0,16"/>
  </object>
  <object id="2474" type="Node" x="496" y="1088">
   <polygon points="0,0 -32,0 -32,16 0,16"/>
  </object>
  <object id="1627" type="Node" x="272" y="480">
   <properties>
    <property name="tactical" value="exposed"/>
   </properties>
   <polygon points="0,0 -32,0 -32,16 0,16"/>
  </object>
  <object id="2443" type="Node" x="176" y="480">
   <properties>
    <property name="tactical" value="exposed"/>
   </properties>
   <polygon points="0,0 -32,0 -32,16 0,16"/>
  </object>
  <object id="1984" type="Node" x="560" y="416">
   <properties>
    <property name="tactical" value="cover"/>
   </properties>
   <polygon points="0,0 16,-16 16,-32 0,-48 -32,-48 -48,-32 -48,-16 -32,0"/>
  </object>
  <object id="2006" type="Node" x="560" y="480">
   <polygon points="0,0 16,-16 16,-32 0,-48 -32,-48 -48,-32 -48,-16 -32,0"/>
  </object>
  <object id="1598" type="Node" x="464" y="480">
   <properties>
    <property name="tactical" value="exposed"/>
   </properties>
   <polygon points="0,0 16,-16 16,-32 0,-48 -32,-48 -48,-32 -48,-16 -32,0"/>
  </object>
  <object id="2540" type="Node" x="592" y="1216">
   <properties>
    <property name="tactical" value="exposed"/>
   </properties>
   <polygon points="0,0 16,-16 16,-32 0,-48 -32,-48 -48,-32 -48,-16 -32,0"/>
  </object>
  <object id="2484" type="Node" x="688" y="1088">
   <properties>
    <property name="tactical" value="exposed"/>
   </properties>
   <polygon points="0,0 16,-16 16,-32 0,-48 -32,-48 -48,-32 -48,-16 -32,0"/>
  </object>
  <object id="2492" type="Node" x="784" y="1088">
   <properties>
    <property name="tactical" value="exposed"/>
   </properties>
   <polygon points="0,0 16,-16 16,-32 0,-48 -32,-48 -48,-32 -48,-16 -32,0"/>
  </object>
  <object id="2533" type="Node" x="784" y="1216">
   <polygon points="0,0 16,-16 16,-32 0,-48 -32,-48 -48,-32 -48,-16 -32,0"/>
  </object>
  <object id="2500" type="Node" x="880" y="1088">
   <properties>
    <property name="tactical" value="exposed"/>
   </properties>
   <polygon points="0,0 16,-16 16,-32 0,-48 -32,-48 -48,-32 -48,-16 -32,0"/>
  </object>
  <object id="2527" type="Node" x="976" y="1216">
   <properties>
    <property name="tactical" value="exposed"/>
   </properties>
   <polygon points="0,0 16,-16 16,-32 0,-48 -32,-48 -48,-32 -48,-16 -32,0"/>
  </object>
  <object id="2516" type="Node" x="1072" y="1088">
   <polygon points="0,0 16,-16 16,-32 0,-48 -32,-48 -48,-32 -48,-16 -32,0"/>
  </object>
  <object id="2524" type="Node" x="1072" y="1216">
   <polygon points="0,0 16,-16 16,-32 0,-48 -32,-48 -48,-32 -48,-16 -32,0"/>
  </object>
  <object id="1983" type="Node" x="464" y="416">
   <polygon points="0,0 16,-16 16,-32 0,-48 -32,-48 -48,-32 -48,-16 -32,0"/>
  </object>
  <object id="2559" type="Node" x="592" y="1152">
   <polygon points="0,0 16,-16 16,-32 0,-48 -32,-48 -48,-32 -48,-16 -32,0"/>
  </object>
  <object id="2487" type="Node" x="688" y="1024">
   <polygon points="0,0 16,-16 16,-32 0,-48 -32,-48 -48,-32 -48,-16 -32,0"/>
  </object>
  <object id="2557" type="Node" x="688" y="1152">
   <properties>
    <property name="tactical" value="sentry"/>
   </properties>
   <polygon points="0,0 16,-16 16,-32 0,-48 -32,-48 -48,-32 -48,-16 -32,0"/>
  </object>
  <object id="2495" type="Node" x="784" y="1024">
   <properties>
    <property name="tactical" value="sentry"/>
   </properties>
   <polygon points="0,0 16,-16 16,-32 0,-48 -32,-48 -48,-32 -48,-16 -32,0"/>
  </object>
  <object id="2555" type="Node" x="784" y="1152">
   <properties>
    <property name="tactical" value="exposed"/>
   </properties>
   <polygon points="0,0 16,-16 16,-32 0,-48 -32,-48 -48,-32 -48,-16 -32,0"/>
  </object>
  <object id="2503" type="Node" x="880" y="1024">
   <polygon points="0,0 16,-16 16,-32 0,-48 -32,-48 -48,-32 -48,-16 -32,0"/>
  </object>
  <object id="2553" type="Node" x="880" y="1152">
   <properties>
    <property name="tactical" value="sentry"/>
   </properties>
   <polygon points="0,0 16,-16 16,-32 0,-48 -32,-48 -48,-32 -48,-16 -32,0"/>
  </object>
  <object id="2551" type="Node" x="976" y="1152">
   <polygon points="0,0 16,-16 16,-32 0,-48 -32,-48 -48,-32 -48,-16 -32,0"/>
  </object>
  <object id="2519" type="Node" x="1072" y="1024">
   <properties>
    <property name="tactical" value="cover"/>
   </properties>
   <polygon points="0,0 16,-16 16,-32 0,-48 -32,-48 -48,-32 -48,-16 -32,0"/>
  </object>
  <object id="2549" type="Node" x="1072" y="1152">
   <polygon points="0,0 16,-16 16,-32 0,-48 -32,-48 -48,-32 -48,-16 -32,0"/>
  </object>
  <object id="1612" type="Node" x="368" y="480">
   <properties>
    <property name="tactical" value="exposed"/>
   </properties>
   <polygon points="0,0 16,-16 16,-32 0,-48 -32,-48 -48,-32 -48,-16 -32,0"/>
  </object>
  <object id="2472" type="Node" x="496" y="1088">
   <polygon points="0,0 16,-16 16,-32 0,-48 -32,-48 -48,-32 -48,-16 -32,0"/>
  </object>
  <object id="2541" type="Node" x="496" y="1216">
   <polygon points="0,0 16,-16 16,-32 0,-48 -32,-48 -48,-32 -48,-16 -32,0"/>
  </object>
  <object id="1982" type="Node" x="368" y="416">
   <polygon points="0,0 16,-16 16,-32 0,-48 -32,-48 -48,-32 -48,-16 -32,0"/>
  </object>
  <object id="2479" type="Node" x="496" y="1024">
   <properties>
    <property name="tactical" value="cover"/>
   </properties>
   <polygon points="0,0 16,-16 16,-32 0,-48 -32,-48 -48,-32 -48,-16 -32,0"/>
  </object>
  <object id="2560" type="Node" x="496" y="1152">
   <polygon points="0,0 16,-16 16,-32 0,-48 -32,-48 -48,-32 -48,-16 -32,0"/>
  </object>
  <object id="1626" type="Node" x="272" y="480">
   <properties>
    <property name="tactical" value="exposed"/>
   </properties>
   <polygon points="0,0 16,-16 16,-32 0,-48 -32,-48 -48,-32 -48,-16 -32,0"/>
  </object>
  <object id="2442" type="Node" x="176" y="480">
   <properties>
    <property name="tactical" value="exposed"/>
   </properties>
   <polygon points="0,0 16,-16 16,-32 0,-48 -32,-48 -48,-32 -48,-16 -32,0"/>
  </object>
  <object id="2463" type="Node" x="80" y="480">
   <properties>
    <property name="tactical" value="sentry"/>
   </properties>
   <polygon points="0,0 16,-16 16,-32 0,-48 -32,-48 -48,-32 -48,-16 -32,0"/>
  </object>
  <object id="1658" type="Node" x="224" y="512">
   <properties>
    <property name="tactical" value="exposed"/>
   </properties>
   <polygon points="0,0 16,-16 16,-32 0,-48 -32,-48 -48,-32 -48,-16 -32,0"/>
  </object>
  <object id="2440" type="Node" x="128" y="512">
   <properties>
    <property name="tactical" value="exposed"/>
   </properties>
   <polygon points="0,0 16,-16 16,-32 0,-48 -32,-48 -48,-32 -48,-16 -32,0"/>
  </object>
  <object id="1657" type="Node" x="224" y="448">
   <polygon points="0,0 16,-16 16,-32 0,-48 -32,-48 -48,-32 -48,-16 -32,0"/>
  </object>
  <object id="2445" type="Node" x="128" y="448">
   <polygon points="0,0 16,-16 16,-32 0,-48 -32,-48 -48,-32 -48,-16 -32,0"/>
  </object>
  <object id="1640" type="Node" x="272" y="416">
   <polygon points="0,0 16,-16 16,-32 0,-48 -32,-48 -48,-32 -48,-16 -32,0"/>
  </object>
  <object id="2447" type="Node" x="176" y="416">
   <polygon points="0,0 16,-16 16,-32 0,-48 -32,-48 -48,-32 -48,-16 -32,0"/>
  </object>
  <object id="2464" type="Node" x="80" y="416">
   <properties>
    <property name="tactical" value="cover"/>
   </properties>
   <polygon points="0,0 16,-16 16,-32 0,-48 -32,-48 -48,-32 -48,-16 -32,0"/>
  </object>
  <object id="1575" type="Node" x="528" y="416">
   <polygon points="0,0 0,16 32,16 32,0"/>
  </object>
  <object id="1602" type="Node" x="432" y="416">
   <polygon points="0,0 0,16 32,16 32,0"/>
  </object>
  <object id="2561" type="Node" x="560" y="1152">
   <properties>
    <property name="tactical" value="exposed"/>
   </properties>
   <polygon points="0,0 0,16 32,16 32,0"/>
  </object>
  <object id="2488" type="Node" x="656" y="1024">
   <properties>
    <property name="tactical" value="exposed"/>
   </properties>
   <polygon points="0,0 0,16 32,16 32,0"/>
  </object>
  <object id="2496" type="Node" x="752" y="1024">
   <properties>
    <property name="tactical" value="exposed"/>
   </properties>
   <polygon points="0,0 0,16 32,16 32,0"/>
  </object>
  <object id="2556" type="Node" x="752" y="1152">
   <properties>
    <property name="tactical" value="exposed"/>
   </properties>
   <polygon points="0,0 0,16 32,16 32,0"/>
  </object>
  <object id="2504" type="Node" x="848" y="1024">
   <properties>
    <property name="tactical" value="exposed"/>
   </properties>
   <polygon points="0,0 0,16 32,16 32,0"/>
  </object>
  <object id="2552" type="Node" x="944" y="1152">
   <properties>
    <property name="tactical" value="exposed"/>
   </properties>
   <polygon points="0,0 0,16 32,16 32,0"/>
  </object>
  <object id="2520" type="Node" x="1040" y="1024">
   <polygon points="0,0 0,16 32,16 32,0"/>
  </object>
  <object id="2550" type="Node" x="1040" y="1152">
   <polygon points="0,0 0,16 32,16 32,0"/>
  </object>
  <object id="1616" type="Node" x="336" y="416">
   <polygon points="0,0 0,16 32,16 32,0"/>
  </object>
  <object id="2477" type="Node" x="464" y="1024">
   <polygon points="0,0 0,16 32,16 32,0"/>
  </object>
  <object id="2562" type="Node" x="464" y="1152">
   <polygon points="0,0 0,16 32,16 32,0"/>
  </object>
  <object id="1630" type="Node" x="240" y="416">
   <polygon points="0,0 0,16 32,16 32,0"/>
  </object>
  <object id="2446" type="Node" x="144" y="416">
   <polygon points="0,0 0,16 32,16 32,0"/>
  </object>
  <object id="1578" type="Node" x="560" y="496">
   <properties>
    <property name="tactical" value="sentry"/>
   </properties>
   <polygon points="0,0 16,16 16,32 0,48 -32,48 -48,32 -48,16 -32,0"/>
  </object>
  <object id="1596" type="Node" x="464" y="496">
   <properties>
    <property name="tactical" value="exposed"/>
   </properties>
   <polygon points="0,0 16,16 16,32 0,48 -32,48 -48,32 -48,16 -32,0"/>
  </object>
  <object id="1610" type="Node" x="368" y="496">
   <properties>
    <property name="tactical" value="exposed"/>
   </properties>
   <polygon points="0,0 16,16 16,32 0,48 -32,48 -48,32 -48,16 -32,0"/>
  </object>
  <object id="1624" type="Node" x="272" y="496">
   <properties>
    <property name="tactical" value="exposed"/>
   </properties>
   <polygon points="0,0 16,16 16,32 0,48 -32,48 -48,32 -48,16 -32,0"/>
  </object>
  <object id="2441" type="Node" x="176" y="496">
   <properties>
    <property name="tactical" value="exposed"/>
   </properties>
   <polygon points="0,0 16,16 16,32 0,48 -32,48 -48,32 -48,16 -32,0"/>
  </object>
  <object id="2461" type="Node" x="80" y="496">
   <properties>
    <property name="tactical" value="sentry"/>
   </properties>
   <polygon points="0,0 16,16 16,32 0,48 -32,48 -48,32 -48,16 -32,0"/>
  </object>
  <object id="1659" type="Node" x="224" y="528">
   <polygon points="0,0 16,16 16,32 0,48 -32,48 -48,32 -48,16 -32,0"/>
  </object>
  <object id="2438" type="Node" x="128" y="528">
   <polygon points="0,0 16,16 16,32 0,48 -32,48 -48,32 -48,16 -32,0"/>
  </object>
  <object id="1582" type="Node" x="560" y="544">
   <polygon points="0,0 -32,0 -32,16 0,16"/>
  </object>
  <object id="1594" type="Node" x="464" y="544">
   <polygon points="0,0 -32,0 -32,16 0,16"/>
  </object>
  <object id="1608" type="Node" x="368" y="544">
   <polygon points="0,0 -32,0 -32,16 0,16"/>
  </object>
  <object id="1622" type="Node" x="272" y="544">
   <polygon points="0,0 -32,0 -32,16 0,16"/>
  </object>
  <object id="2437" type="Node" x="176" y="544">
   <polygon points="0,0 -32,0 -32,16 0,16"/>
  </object>
  <object id="1583" type="Node" x="480" y="384">
   <polygon points="0,0 0,16 32,16 32,0"/>
  </object>
  <object id="1604" type="Node" x="384" y="384">
   <polygon points="0,0 0,16 32,16 32,0"/>
  </object>
  <object id="2482" type="Node" x="512" y="992">
   <properties>
    <property name="tactical" value="cover"/>
   </properties>
   <polygon points="0,0 0,16 32,16 32,0"/>
  </object>
  <object id="2574" type="Node" x="512" y="1120">
   <polygon points="0,0 0,16 32,16 32,0"/>
  </object>
  <object id="2490" type="Node" x="608" y="992">
   <properties>
    <property name="tactical" value="cover"/>
   </properties>
   <polygon points="0,0 0,16 32,16 32,0"/>
  </object>
  <object id="2573" type="Node" x="608" y="1120">
   <polygon points="0,0 0,16 32,16 32,0"/>
  </object>
  <object id="2498" type="Node" x="704" y="992">
   <polygon points="0,0 0,16 32,16 32,0"/>
  </object>
  <object id="2572" type="Node" x="704" y="1120">
   <polygon points="0,0 0,16 32,16 32,0"/>
  </object>
  <object id="2506" type="Node" x="800" y="992">
   <polygon points="0,0 0,16 32,16 32,0"/>
  </object>
  <object id="2571" type="Node" x="800" y="1120">
   <polygon points="0,0 0,16 32,16 32,0"/>
  </object>
  <object id="2514" type="Node" x="896" y="992">
   <properties>
    <property name="tactical" value="cover"/>
   </properties>
   <polygon points="0,0 0,16 32,16 32,0"/>
  </object>
  <object id="2570" type="Node" x="896" y="1120">
   <polygon points="0,0 0,16 32,16 32,0"/>
  </object>
  <object id="2522" type="Node" x="992" y="992">
   <properties>
    <property name="tactical" value="cover"/>
   </properties>
   <polygon points="0,0 0,16 32,16 32,0"/>
  </object>
  <object id="2569" type="Node" x="992" y="1120">
   <polygon points="0,0 0,16 32,16 32,0"/>
  </object>
  <object id="1618" type="Node" x="288" y="384">
   <polygon points="0,0 0,16 32,16 32,0"/>
  </object>
  <object id="1632" type="Node" x="192" y="384">
   <polygon points="0,0 0,16 32,16 32,0"/>
  </object>
  <object id="2448" type="Node" x="96" y="384">
   <polygon points="0,0 0,16 32,16 32,0"/>
  </object>
  <object id="1584" type="Node" x="480" y="400">
   <polygon points="0,0 -16,16 -16,32 0,48 32,48 48,32 48,16 32,0"/>
  </object>
  <object id="1603" type="Node" x="384" y="400">
   <polygon points="0,0 -16,16 -16,32 0,48 32,48 48,32 48,16 32,0"/>
  </object>
  <object id="2481" type="Node" x="512" y="1008">
   <polygon points="0,0 -16,16 -16,32 0,48 32,48 48,32 48,16 32,0"/>
  </object>
  <object id="2568" type="Node" x="512" y="1136">
   <properties>
    <property name="tactical" value="exposed"/>
   </properties>
   <polygon points="0,0 -16,16 -16,32 0,48 32,48 48,32 48,16 32,0"/>
  </object>
  <object id="2489" type="Node" x="608" y="1008">
   <polygon points="0,0 -16,16 -16,32 0,48 32,48 48,32 48,16 32,0"/>
  </object>
  <object id="2567" type="Node" x="608" y="1136">
   <polygon points="0,0 -16,16 -16,32 0,48 32,48 48,32 48,16 32,0"/>
  </object>
  <object id="2497" type="Node" x="704" y="1008">
   <properties>
    <property name="tactical" value="exposed"/>
   </properties>
   <polygon points="0,0 -16,16 -16,32 0,48 32,48 48,32 48,16 32,0"/>
  </object>
  <object id="2566" type="Node" x="704" y="1136">
   <polygon points="0,0 -16,16 -16,32 0,48 32,48 48,32 48,16 32,0"/>
  </object>
  <object id="2505" type="Node" x="800" y="1008">
   <properties>
    <property name="tactical" value="exposed"/>
   </properties>
   <polygon points="0,0 -16,16 -16,32 0,48 32,48 48,32 48,16 32,0"/>
  </object>
  <object id="2565" type="Node" x="800" y="1136">
   <polygon points="0,0 -16,16 -16,32 0,48 32,48 48,32 48,16 32,0"/>
  </object>
  <object id="2513" type="Node" x="896" y="1008">
   <polygon points="0,0 -16,16 -16,32 0,48 32,48 48,32 48,16 32,0"/>
  </object>
  <object id="2564" type="Node" x="896" y="1136">
   <polygon points="0,0 -16,16 -16,32 0,48 32,48 48,32 48,16 32,0"/>
  </object>
  <object id="2521" type="Node" x="992" y="1008">
   <polygon points="0,0 -16,16 -16,32 0,48 32,48 48,32 48,16 32,0"/>
  </object>
  <object id="2563" type="Node" x="992" y="1136">
   <properties>
    <property name="tactical" value="exposed"/>
   </properties>
   <polygon points="0,0 -16,16 -16,32 0,48 32,48 48,32 48,16 32,0"/>
  </object>
  <object id="1617" type="Node" x="288" y="400">
   <polygon points="0,0 -16,16 -16,32 0,48 32,48 48,32 48,16 32,0"/>
  </object>
  <object id="1585" type="Node" x="480" y="448">
   <polygon points="0,0 0,16 32,16 32,0"/>
  </object>
  <object id="1600" type="Node" x="384" y="448">
   <properties>
    <property name="tactical" value="exposed"/>
   </properties>
   <polygon points="0,0 0,16 32,16 32,0"/>
  </object>
  <object id="2548" type="Node" x="512" y="1184">
   <properties>
    <property name="tactical" value="exposed"/>
   </properties>
   <polygon points="0,0 0,16 32,16 32,0"/>
  </object>
  <object id="2547" type="Node" x="608" y="1184">
   <polygon points="0,0 0,16 32,16 32,0"/>
  </object>
  <object id="2494" type="Node" x="704" y="1056">
   <properties>
    <property name="tactical" value="exposed"/>
   </properties>
   <polygon points="0,0 0,16 32,16 32,0"/>
  </object>
  <object id="2546" type="Node" x="704" y="1184">
   <polygon points="0,0 0,16 32,16 32,0"/>
  </object>
  <object id="2502" type="Node" x="800" y="1056">
   <properties>
    <property name="tactical" value="exposed"/>
   </properties>
   <polygon points="0,0 0,16 32,16 32,0"/>
  </object>
  <object id="2545" type="Node" x="800" y="1184">
   <polygon points="0,0 0,16 32,16 32,0"/>
  </object>
  <object id="2544" type="Node" x="896" y="1184">
   <polygon points="0,0 0,16 32,16 32,0"/>
  </object>
  <object id="2582" type="Node" x="896" y="1056">
   <polygon points="0,0 0,16 32,16 32,0"/>
  </object>
  <object id="2586" type="Node" x="512" y="1056">
   <polygon points="0,0 0,16 32,16 32,0"/>
  </object>
  <object id="2584" type="Node" x="992" y="1056">
   <polygon points="0,0 0,16 32,16 32,0"/>
  </object>
  <object id="2588" type="Node" x="608" y="1056">
   <polygon points="0,0 0,16 32,16 32,0"/>
  </object>
  <object id="2543" type="Node" x="992" y="1184">
   <properties>
    <property name="tactical" value="exposed"/>
   </properties>
   <polygon points="0,0 0,16 32,16 32,0"/>
  </object>
  <object id="1614" type="Node" x="288" y="448">
   <properties>
    <property name="tactical" value="exposed"/>
   </properties>
   <polygon points="0,0 0,16 32,16 32,0"/>
  </object>
  <object id="1628" type="Node" x="192" y="448">
   <properties>
    <property name="tactical" value="exposed"/>
   </properties>
   <polygon points="0,0 0,16 32,16 32,0"/>
  </object>
  <object id="2444" type="Node" x="96" y="448">
   <properties>
    <property name="tactical" value="exposed"/>
   </properties>
   <polygon points="0,0 0,16 32,16 32,0"/>
  </object>
  <object id="1586" type="Node" x="464" y="480">
   <polygon points="0,0 16,-16 48,-16 64,0 64,16 48,32 16,32 0,16"/>
  </object>
  <object id="1597" type="Node" x="368" y="480">
   <properties>
    <property name="tactical" value="exposed"/>
   </properties>
   <polygon points="0,0 16,-16 48,-16 64,0 64,16 48,32 16,32 0,16"/>
  </object>
  <object id="2471" type="Node" x="496" y="1088">
   <polygon points="0,0 16,-16 48,-16 64,0 64,16 48,32 16,32 0,16"/>
  </object>
  <object id="2542" type="Node" x="496" y="1216">
   <polygon points="0,0 16,-16 48,-16 64,0 64,16 48,32 16,32 0,16"/>
  </object>
  <object id="2485" type="Node" x="592" y="1088">
   <polygon points="0,0 16,-16 48,-16 64,0 64,16 48,32 16,32 0,16"/>
  </object>
  <object id="2537" type="Node" x="592" y="1216">
   <properties>
    <property name="tactical" value="cover"/>
   </properties>
   <polygon points="0,0 16,-16 48,-16 64,0 64,16 48,32 16,32 0,16"/>
  </object>
  <object id="2493" type="Node" x="688" y="1088">
   <properties>
    <property name="tactical" value="exposed"/>
   </properties>
   <polygon points="0,0 16,-16 48,-16 64,0 64,16 48,32 16,32 0,16"/>
  </object>
  <object id="2534" type="Node" x="688" y="1216">
   <properties>
    <property name="tactical" value="cover"/>
   </properties>
   <polygon points="0,0 16,-16 48,-16 64,0 64,16 48,32 16,32 0,16"/>
  </object>
  <object id="2501" type="Node" x="784" y="1088">
   <properties>
    <property name="tactical" value="exposed"/>
   </properties>
   <polygon points="0,0 16,-16 48,-16 64,0 64,16 48,32 16,32 0,16"/>
  </object>
  <object id="2531" type="Node" x="784" y="1216">
   <properties>
    <property name="tactical" value="cover"/>
   </properties>
   <polygon points="0,0 16,-16 48,-16 64,0 64,16 48,32 16,32 0,16"/>
  </object>
  <object id="2509" type="Node" x="880" y="1088">
   <polygon points="0,0 16,-16 48,-16 64,0 64,16 48,32 16,32 0,16"/>
  </object>
  <object id="2528" type="Node" x="880" y="1216">
   <properties>
    <property name="tactical" value="cover"/>
   </properties>
   <polygon points="0,0 16,-16 48,-16 64,0 64,16 48,32 16,32 0,16"/>
  </object>
  <object id="2517" type="Node" x="976" y="1088">
   <polygon points="0,0 16,-16 48,-16 64,0 64,16 48,32 16,32 0,16"/>
  </object>
  <object id="2525" type="Node" x="976" y="1216">
   <polygon points="0,0 16,-16 48,-16 64,0 64,16 48,32 16,32 0,16"/>
  </object>
  <object id="1611" type="Node" x="272" y="480">
   <properties>
    <property name="tactical" value="exposed"/>
   </properties>
   <polygon points="0,0 16,-16 48,-16 64,0 64,16 48,32 16,32 0,16"/>
  </object>
  <object id="1589" type="Node" x="512" y="576">
   <polygon points="0,0 16,-16 16,-32 0,-48 -32,-48 -48,-32 -48,-16 -32,0"/>
  </object>
  <object id="1592" type="Node" x="416" y="576">
   <polygon points="0,0 16,-16 16,-32 0,-48 -32,-48 -48,-32 -48,-16 -32,0"/>
  </object>
  <object id="1606" type="Node" x="320" y="576">
   <polygon points="0,0 16,-16 16,-32 0,-48 -32,-48 -48,-32 -48,-16 -32,0"/>
  </object>
  <object id="1590" type="Node" x="480" y="512">
   <polygon points="0,0 0,16 32,16 32,0"/>
  </object>
  <object id="1595" type="Node" x="384" y="512">
   <properties>
    <property name="tactical" value="exposed"/>
   </properties>
   <polygon points="0,0 0,16 32,16 32,0"/>
  </object>
  <object id="1609" type="Node" x="288" y="512">
   <properties>
    <property name="tactical" value="exposed"/>
   </properties>
   <polygon points="0,0 0,16 32,16 32,0"/>
  </object>
  <object id="1623" type="Node" x="192" y="512">
   <properties>
    <property name="tactical" value="exposed"/>
   </properties>
   <polygon points="0,0 0,16 32,16 32,0"/>
  </object>
  <object id="2439" type="Node" x="96" y="512">
   <properties>
    <property name="tactical" value="exposed"/>
   </properties>
   <polygon points="0,0 0,16 32,16 32,0"/>
  </object>
  <object id="1637" type="Node" x="384" y="608">
   <polygon points="0,0 0,32 32,32 32,0"/>
  </object>
  <object id="1661" type="Node" x="288" y="352">
   <polygon points="0,0 32,0 32,32 0,32"/>
  </object>
  <object id="1662" type="Node" x="192" y="352">
   <polygon points="0,0 32,0 32,32 0,32"/>
  </object>
  <object id="1665" type="Node" x="320" y="304">
   <polygon points="0,0 0,48 -32,48 -32,0"/>
  </object>
  <object id="1666" type="Node" x="192" y="304">
   <polygon points="0,0 0,48 32,48 32,0"/>
  </object>
  <object id="1667" type="Node" x="192" y="304">
   <polygon points="0,0 32,0 32,-48 0,-48"/>
  </object>
  <object id="1668" type="Node" x="288" y="304">
   <polygon points="0,0 32,0 32,-48 0,-48"/>
  </object>
  <object id="1671" type="Node" x="192" y="224">
   <properties>
    <property name="tactical" value="cover"/>
   </properties>
   <polygon points="0,0 0,32 32,32 32,0"/>
  </object>
  <object id="1672" type="Node" x="288" y="224">
   <properties>
    <property name="tactical" value="cover"/>
   </properties>
   <polygon points="0,0 0,32 32,32 32,0"/>
  </object>
  <object id="1673" type="Node" x="224" y="224">
   <polygon points="0,0 64,0 64,32 0,32"/>
  </object>
  <object id="1674" type="Node" x="224" y="304">
   <polygon points="0,0 64,0 64,48 0,48"/>
  </object>
  <object id="1677" type="Node" x="368" y="688">
   <polygon points="0,0 16,-16 48,-16 64,0 64,16 48,32 16,32 0,16 0,0"/>
  </object>
  <object id="1678" type="Node" x="336" y="704">
   <polygon points="0,0 32,0 48,16 48,32 32,48 0,48 -16,32 -16,16"/>
  </object>
  <object id="1679" type="Node" x="416" y="720">
   <polygon points="0,0 0,16 16,32 48,32 64,16 64,0 48,-16 16,-16"/>
  </object>
  <object id="1683" type="Node" x="480" y="736">
   <polygon points="0,0 32,0 48,16 48,32 32,48 0,48 -16,32 -16,16"/>
  </object>
  <object id="1686" type="Node" x="512" y="784">
   <polygon points="0,0 16,-16 48,-16 64,0 64,16 48,32 16,32 0,16"/>
  </object>
  <object id="1691" type="Node" x="432" y="688">
   <properties>
    <property name="tactical" value="exposed"/>
   </properties>
   <polygon points="0,0 32,0 32,16 0,16"/>
  </object>
  <object id="1694" type="Node" x="480" y="784">
   <polygon points="0,0 0,16 32,16 32,0"/>
  </object>
  <object id="2298" type="Node" x="576" y="720">
   <polygon points="0,0 0,16 32,16 32,0"/>
  </object>
  <object id="2299" type="Node" x="576" y="848">
   <polygon points="0,0 0,16 32,16 32,0"/>
  </object>
  <object id="1696" type="Node" x="464" y="816">
   <polygon points="0,0 0,16 16,32 48,32 64,16 64,0 48,-16 16,-16"/>
  </object>
  <object id="1700" type="Node" x="464" y="832">
   <polygon points="0,0 -32,0 -48,16 -48,32 -32,48 0,48 16,32 16,16"/>
  </object>
  <object id="1721" type="Node" x="512" y="864">
   <polygon points="0,0 -32,0 -48,16 -48,32 -32,48 0,48 16,32 16,16"/>
  </object>
  <object id="1710" type="Node" x="416" y="864">
   <polygon points="0,0 -32,0 -48,16 -48,32 -32,48 0,48 16,32 16,16"/>
  </object>
  <object id="1711" type="Node" x="432" y="880">
   <properties>
    <property name="tactical" value="exposed"/>
   </properties>
   <polygon points="0,0 0,16 32,16 32,0"/>
  </object>
  <object id="1712" type="Node" x="368" y="880">
   <properties>
    <property name="tactical" value="exposed"/>
   </properties>
   <polygon points="0,0 -32,0 -32,16 0,16"/>
  </object>
  <object id="1713" type="Node" x="336" y="880">
   <polygon points="0,0 -16,-16 -48,-16 -64,0 -64,16 -48,32 -16,32 0,16"/>
  </object>
  <object id="1715" type="Node" x="320" y="864">
   <polygon points="0,0 0,-16 16,-32 48,-32 64,-16 64,0 48,16 16,16"/>
  </object>
  <object id="1716" type="Node" x="272" y="832">
   <polygon points="0,0 0,-16 16,-32 48,-32 64,-16 64,0 48,16 16,16"/>
  </object>
  <object id="1719" type="Node" x="224" y="800">
   <polygon points="0,0 0,-16 16,-32 48,-32 64,-16 64,0 48,16 16,16"/>
  </object>
  <object id="1717" type="Node" x="272" y="768">
   <polygon points="0,0 0,-16 16,-32 48,-32 64,-16 64,0 48,16 16,16"/>
  </object>
  <object id="1718" type="Node" x="272" y="704">
   <polygon points="0,0 0,-16 16,-32 48,-32 64,-16 64,0 48,16 16,16"/>
  </object>
  <object id="1726" type="Node" x="336" y="688">
   <properties>
    <property name="tactical" value="exposed"/>
   </properties>
   <polygon points="0,0 0,16 32,16 32,0"/>
  </object>
  <object id="1727" type="Node" x="288" y="848">
   <polygon points="0,0 0,16 32,16 32,0"/>
  </object>
  <object id="1728" type="Node" x="480" y="848">
   <polygon points="0,0 0,16 32,16 32,0"/>
  </object>
  <object id="1730" type="Node" x="560" y="880">
   <polygon points="0,0 0,16 16,32 48,32 64,16 64,0 48,-16 16,-16"/>
  </object>
  <object id="1743" type="Node" x="240" y="896">
   <polygon points="0,0 0,-16 -16,-32 -48,-32 -64,-16 -64,0 -48,16 -16,16"/>
  </object>
  <object id="1744" type="Node" x="192" y="848">
   <polygon points="0,0 0,16 32,16 32,0"/>
  </object>
  <object id="1745" type="Node" x="192" y="848">
   <polygon points="0,0 32,0 48,-16 48,-32 32,-48 0,-48 -16,-32 -16,-16"/>
  </object>
  <object id="1747" type="Node" x="288" y="784">
   <polygon points="0,0 0,16 32,16 32,0"/>
  </object>
  <object id="1748" type="Node" x="224" y="784">
   <polygon points="0,0 16,-16 16,-32 0,-48 -32,-48 -48,-32 -48,-16 -32,0"/>
  </object>
  <object id="1750" type="Node" x="288" y="720">
   <polygon points="0,0 0,16 32,16 32,0"/>
  </object>
  <object id="1751" type="Node" x="224" y="720">
   <polygon points="0,0 0,16 -32,16 -32,0"/>
  </object>
  <object id="1752" type="Node" x="464" y="688">
   <polygon points="0,0 16,-16 48,-16 64,0 64,16 48,32 16,32 0,16"/>
  </object>
  <object id="1753" type="Node" x="480" y="720">
   <polygon points="0,0 0,16 32,16 32,0"/>
  </object>
  <object id="1755" type="Node" x="560" y="688">
   <polygon points="0,0 0,16 16,32 48,32 64,16 64,0 48,-16 16,-16"/>
  </object>
  <object id="2294" type="Node" x="560" y="752">
   <polygon points="0,0 0,16 16,32 48,32 64,16 64,0 48,-16 16,-16"/>
  </object>
  <object id="2295" type="Node" x="560" y="816">
   <polygon points="0,0 0,16 16,32 48,32 64,16 64,0 48,-16 16,-16"/>
  </object>
  <object id="1762" type="Node" x="192" y="672">
   <polygon points="0,0 32,0 48,16 48,32 32,48 0,48 -16,32 -16,16"/>
  </object>
  <object id="1764" type="Node" x="368" y="64">
   <properties>
    <property name="tactical" value="exposed"/>
   </properties>
   <polygon points="0,0 -32,0 -32,16 0,16"/>
  </object>
  <object id="1776" type="Node" x="272" y="64">
   <properties>
    <property name="tactical" value="exposed"/>
   </properties>
   <polygon points="0,0 -32,0 -32,16 0,16"/>
  </object>
  <object id="1765" type="Node" x="336" y="80">
   <properties>
    <property name="tactical" value="exposed"/>
   </properties>
   <polygon points="0,0 -16,16 -16,32 0,48 32,48 48,32 48,16 32,0"/>
  </object>
  <object id="1774" type="Node" x="240" y="80">
   <properties>
    <property name="tactical" value="exposed"/>
   </properties>
   <polygon points="0,0 -16,16 -16,32 0,48 32,48 48,32 48,16 32,0"/>
  </object>
  <object id="1767" type="Node" x="336" y="128">
   <properties>
    <property name="tactical" value="exposed"/>
   </properties>
   <polygon points="0,0 0,16 32,16 32,0"/>
  </object>
  <object id="1772" type="Node" x="240" y="128">
   <properties>
    <property name="tactical" value="exposed"/>
   </properties>
   <polygon points="0,0 0,16 32,16 32,0"/>
  </object>
  <object id="1788" type="Node" x="192" y="160">
   <properties>
    <property name="tactical" value="cover"/>
   </properties>
   <polygon points="0,0 0,32 32,32 32,0"/>
  </object>
  <object id="2089" type="Node" x="224" y="576">
   <properties>
    <property name="tactical" value="sentry"/>
   </properties>
   <polygon points="0,0 0,32 64,32 64,0 48,-16 16,-16"/>
  </object>
  <object id="2436" type="Node" x="128" y="576">
   <properties>
    <property name="tactical" value="sentry"/>
   </properties>
   <polygon points="0,0 0,32 64,32 64,0 48,-16 16,-16"/>
  </object>
  <object id="2459" type="Node" x="32" y="576">
   <properties>
    <property name="tactical" value="sentry"/>
   </properties>
   <polygon points="0,0 0,32 64,32 64,0 48,-16 16,-16"/>
  </object>
  <object id="1791" type="Node" x="288" y="160">
   <polygon points="0,0 0,32 32,32 32,0"/>
  </object>
  <object id="2088" type="Node" x="288" y="576">
   <polygon points="0,0 0,32 32,32 32,0"/>
  </object>
  <object id="2380" type="Node" x="192" y="576">
   <polygon points="0,0 0,32 32,32 32,0"/>
  </object>
  <object id="2435" type="Node" x="96" y="576">
   <polygon points="0,0 0,32 32,32 32,0"/>
  </object>
  <object id="2087" type="Node" x="320" y="576">
   <polygon points="0,0 0,32 64,32 64,0 48,-16 16,-16"/>
  </object>
  <object id="2091" type="Node" x="416" y="576">
   <polygon points="0,0 0,32 64,32 64,0 48,-16 16,-16"/>
  </object>
  <object id="1796" type="Node" x="384" y="160">
   <polygon points="0,0 0,32 32,32 32,0"/>
  </object>
  <object id="2092" type="Node" x="480" y="576">
   <polygon points="0,0 0,32 32,32 32,0"/>
  </object>
  <object id="1798" type="Node" x="432" y="64">
   <polygon points="0,0 0,16 -16,32 -16,48 0,64 0,80 16,80 16,0"/>
  </object>
  <object id="1804" type="Node" x="480" y="160">
   <properties>
    <property name="tactical" value="cover"/>
   </properties>
   <polygon points="0,0 0,32 32,32 32,0"/>
  </object>
  <object id="1810" type="Node" x="528" y="64">
   <properties>
    <property name="tactical" value="exposed"/>
   </properties>
   <polygon points="0,0 0,16 32,16 32,0"/>
  </object>
  <object id="1811" type="Node" x="224" y="32">
   <polygon points="0,0 16,-16 48,-16 64,0 64,16 48,32 16,32 0,16"/>
  </object>
  <object id="1812" type="Node" x="320" y="32">
   <polygon points="0,0 16,-16 48,-16 64,0 64,16 48,32 16,32 0,16"/>
  </object>
  <object id="1813" type="Node" x="416" y="32">
   <properties>
    <property name="tactical" value="cover"/>
   </properties>
   <polygon points="0,0 16,-16 32,-16 32,32 16,32 0,16"/>
  </object>
  <object id="1814" type="Node" x="512" y="32">
   <polygon points="0,0 16,-16 48,-16 64,0 64,16 48,32 16,32 0,16"/>
  </object>
  <object id="1832" type="Node" x="768" y="32">
   <polygon points="0,0 16,-16 48,-16 64,0 64,16 48,32 16,32 0,16"/>
  </object>
  <object id="1815" type="Node" x="608" y="32">
   <polygon points="0,0 16,-16 48,-16 64,0 64,16 48,32 16,32 0,16"/>
  </object>
  <object id="1833" type="Node" x="864" y="32">
   <polygon points="0,0 16,-16 48,-16 64,0 64,16 48,32 16,32 0,16"/>
  </object>
  <object id="1834" type="Node" x="960" y="32">
   <polygon points="0,0 16,-16 48,-16 64,0 64,16 48,32 16,32 0,16"/>
  </object>
  <object id="1817" type="Node" x="576" y="160">
   <polygon points="0,0 0,32 32,32 32,0"/>
  </object>
  <object id="1820" type="Node" x="672" y="192">
   <polygon points="0,0 0,-32 32,-32 32,0"/>
  </object>
  <object id="1821" type="Node" x="656" y="64">
   <polygon points="0,0 16,-16 48,-16 64,0 64,16 48,32 16,32 0,16"/>
  </object>
  <object id="1822" type="Node" x="656" y="144">
   <polygon points="0,0 0,-16 16,-32 48,-32 64,-16 64,0 48,16 16,16"/>
  </object>
  <object id="1824" type="Node" x="832" y="160">
   <properties>
    <property name="tactical" value="sentry"/>
   </properties>
   <polygon points="0,0 0,32 32,32 32,0"/>
  </object>
  <object id="1826" type="Node" x="928" y="160">
   <properties>
    <property name="tactical" value="sentry"/>
   </properties>
   <polygon points="0,0 0,32 32,32 32,0"/>
  </object>
  <object id="1828" type="Node" x="1024" y="160">
   <properties>
    <property name="tactical" value="sentry"/>
   </properties>
   <polygon points="0,0 0,32 32,32 32,0"/>
  </object>
  <object id="1830" type="Node" x="976" y="128">
   <polygon points="0,0 32,0 32,16 0,16"/>
  </object>
  <object id="1837" type="Node" x="1056" y="16">
   <properties>
    <property name="tactical" value="cover"/>
   </properties>
   <polygon points="0,0 0,32 16,48 32,48 32,0"/>
  </object>
  <object id="1838" type="Node" x="976" y="64">
   <polygon points="0,0 0,16 32,16 32,0"/>
  </object>
  <object id="1839" type="Node" x="976" y="80">
   <polygon points="0,0 -16,16 -16,32 0,48 32,48 48,32 48,16 32,0"/>
  </object>
  <object id="1840" type="Node" x="736" y="192">
   <properties>
    <property name="tactical" value="sentry"/>
   </properties>
   <polygon points="0,0 0,-32 32,-32 32,0"/>
  </object>
  <object id="1845" type="Node" x="672" y="32">
   <polygon points="0,0 32,0 32,16 0,16"/>
  </object>
  <object id="1848" type="Node" x="384" y="192">
   <polygon points="0,0 0,32 32,32 32,0"/>
  </object>
  <object id="1865" type="Node" x="576" y="192">
   <polygon points="0,0 0,32 32,32 32,0"/>
  </object>
  <object id="1912" type="Node" x="736" y="192">
   <polygon points="0,0 0,32 32,32 32,0"/>
  </object>
  <object id="1931" type="Node" x="832" y="192">
   <polygon points="0,0 0,32 32,32 32,0"/>
  </object>
  <object id="1951" type="Node" x="928" y="192">
   <polygon points="0,0 0,32 32,32 32,0"/>
  </object>
  <object id="1941" type="Node" x="1024" y="192">
   <polygon points="0,0 0,32 32,32 32,0"/>
  </object>
  <object id="1913" type="Node" x="736" y="336">
   <polygon points="0,0 0,32 32,32 32,0"/>
  </object>
  <object id="1924" type="Node" x="832" y="336">
   <polygon points="0,0 0,32 32,32 32,0"/>
  </object>
  <object id="1920" type="Node" x="720" y="256">
   <properties>
    <property name="tactical" value="narrow"/>
   </properties>
   <polygon points="0,0 0,48 16,48 32,32 32,16 16,0"/>
  </object>
  <object id="2265" type="Node" x="560" y="240">
   <properties>
    <property name="tactical" value="narrow"/>
   </properties>
   <polygon points="0,0 0,48 16,48 32,32 32,16 16,0"/>
  </object>
  <object id="2285" type="Node" x="368" y="240">
   <properties>
    <property name="tactical" value="narrow"/>
   </properties>
   <polygon points="0,0 0,48 16,48 32,32 32,16 16,0"/>
  </object>
  <object id="2318" type="Node" x="368" y="992">
   <properties>
    <property name="tactical" value="narrow"/>
   </properties>
   <polygon points="0,0 0,48 16,48 32,32 32,16 16,0"/>
  </object>
  <object id="2252" type="Node" x="816" y="256">
   <properties>
    <property name="tactical" value="narrow"/>
   </properties>
   <polygon points="0,0 0,48 16,48 32,32 32,16 16,0"/>
  </object>
  <object id="2256" type="Node" x="912" y="256">
   <properties>
    <property name="tactical" value="narrow"/>
   </properties>
   <polygon points="0,0 0,48 16,48 32,32 32,16 16,0"/>
  </object>
  <object id="2260" type="Node" x="1008" y="256">
   <properties>
    <property name="tactical" value="narrow"/>
   </properties>
   <polygon points="0,0 0,48 16,48 32,32 32,16 16,0"/>
  </object>
  <object id="1921" type="Node" x="768" y="256">
   <properties>
    <property name="tactical" value="narrow"/>
   </properties>
   <polygon points="0,0 -16,16 -16,32 0,48 16,48 16,0"/>
  </object>
  <object id="2264" type="Node" x="608" y="240">
   <properties>
    <property name="tactical" value="narrow"/>
   </properties>
   <polygon points="0,0 -16,16 -16,32 0,48 16,48 16,0"/>
  </object>
  <object id="2286" type="Node" x="416" y="240">
   <properties>
    <property name="tactical" value="narrow"/>
   </properties>
   <polygon points="0,0 -16,16 -16,32 0,48 16,48 16,0"/>
  </object>
  <object id="2317" type="Node" x="416" y="992">
   <properties>
    <property name="tactical" value="narrow"/>
   </properties>
   <polygon points="0,0 -16,16 -16,32 0,48 16,48 16,0"/>
  </object>
  <object id="2253" type="Node" x="864" y="256">
   <properties>
    <property name="tactical" value="narrow"/>
   </properties>
   <polygon points="0,0 -16,16 -16,32 0,48 16,48 16,0"/>
  </object>
  <object id="2257" type="Node" x="960" y="256">
   <properties>
    <property name="tactical" value="narrow"/>
   </properties>
   <polygon points="0,0 -16,16 -16,32 0,48 16,48 16,0"/>
  </object>
  <object id="2261" type="Node" x="1056" y="256">
   <properties>
    <property name="tactical" value="narrow"/>
   </properties>
   <polygon points="0,0 -16,16 -16,32 0,48 16,48 16,0"/>
  </object>
  <object id="1952" type="Node" x="912" y="336">
   <polygon points="0,0 0,32 16,48 48,48 64,32 64,0"/>
  </object>
  <object id="1955" type="Node" x="1056" y="448">
   <polygon points="0,0 0,-32 32,-32 32,0"/>
  </object>
  <object id="1961" type="Node" x="1072" y="64">
   <polygon points="0,0 0,16 -16,32 -16,48 0,64 0,80 16,80 16,0"/>
  </object>
  <object id="1962" type="Node" x="1008" y="480">
   <properties>
    <property name="tactical" value="exposed"/>
   </properties>
   <polygon points="0,0 16,-16 48,-16 64,0 64,16 48,32 16,32 0,16"/>
  </object>
  <object id="1963" type="Node" x="1024" y="528">
   <properties>
    <property name="tactical" value="exposed"/>
   </properties>
   <polygon points="0,0 -16,16 -16,32 0,48 32,48 48,32 48,16 32,0"/>
  </object>
  <object id="1964" type="Node" x="1072" y="560">
   <polygon points="0,0 0,-16 -16,-32 -16,-48 0,-64 0,-80 16,-80 16,0"/>
  </object>
  <object id="1966" type="Node" x="1056" y="448">
   <polygon points="0,0 0,16 16,32 32,32 32,0"/>
  </object>
  <object id="1967" type="Node" x="1008" y="368">
   <polygon points="0,0 48,0 48,48 0,48 16,32 16,16"/>
  </object>
  <object id="1968" type="Node" x="1056" y="368">
   <properties>
    <property name="tactical" value="cover"/>
   </properties>
   <polygon points="0,0 32,0 32,48 0,48"/>
  </object>
  <object id="2029" type="Node" x="240" y="688">
   <polygon points="0,0 -16,-16 -16,-48 48,-48 48,-16 32,0"/>
  </object>
  <object id="2094" type="Node" x="240" y="896">
   <polygon points="0,0 -16,16 -16,48 48,48 48,16 32,0"/>
  </object>
  <object id="2021" type="Node" x="784" y="688">
   <properties>
    <property name="tactical" value="sentry"/>
   </properties>
   <polygon points="0,0 -16,-16 -16,-48 48,-48 48,-16 32,0"/>
  </object>
  <object id="2105" type="Node" x="784" y="560">
   <polygon points="0,0 -16,16 -16,48 48,48 48,16 32,0"/>
  </object>
  <object id="2028" type="Node" x="336" y="688">
   <polygon points="0,0 -16,-16 -16,-48 48,-48 48,-16 32,0"/>
  </object>
  <object id="2095" type="Node" x="336" y="896">
   <polygon points="0,0 -16,16 -16,48 48,48 48,16 32,0"/>
  </object>
  <object id="2022" type="Node" x="880" y="688">
   <properties>
    <property name="tactical" value="sentry"/>
   </properties>
   <polygon points="0,0 -16,-16 -16,-48 48,-48 48,-16 32,0"/>
  </object>
  <object id="2104" type="Node" x="880" y="560">
   <polygon points="0,0 -16,16 -16,48 48,48 48,16 32,0"/>
  </object>
  <object id="2027" type="Node" x="432" y="688">
   <polygon points="0,0 -16,-16 -16,-48 48,-48 48,-16 32,0"/>
  </object>
  <object id="2096" type="Node" x="432" y="896">
   <polygon points="0,0 -16,16 -16,48 48,48 48,16 32,0"/>
  </object>
  <object id="2023" type="Node" x="976" y="688">
   <properties>
    <property name="tactical" value="sentry"/>
   </properties>
   <polygon points="0,0 -16,-16 -16,-48 48,-48 48,-16 32,0"/>
  </object>
  <object id="2103" type="Node" x="976" y="560">
   <polygon points="0,0 -16,16 -16,48 48,48 48,16 32,0"/>
  </object>
  <object id="2026" type="Node" x="528" y="688">
   <polygon points="0,0 -16,-16 -16,-48 48,-48 48,-16 32,0"/>
  </object>
  <object id="2097" type="Node" x="528" y="896">
   <polygon points="0,0 -16,16 -16,48 48,48 48,16 32,0"/>
  </object>
  <object id="2018" type="Node" x="736" y="640">
   <polygon points="0,0 32,0 32,32 0,32"/>
  </object>
  <object id="2110" type="Node" x="736" y="608">
   <polygon points="0,0 32,0 32,-32 0,-32"/>
  </object>
  <object id="2032" type="Node" x="288" y="640">
   <polygon points="0,0 32,0 32,32 0,32"/>
  </object>
  <object id="2099" type="Node" x="288" y="944">
   <polygon points="0,0 32,0 32,-32 0,-32"/>
  </object>
  <object id="2019" type="Node" x="832" y="640">
   <polygon points="0,0 32,0 32,32 0,32"/>
  </object>
  <object id="2109" type="Node" x="832" y="608">
   <polygon points="0,0 32,0 32,-32 0,-32"/>
  </object>
  <object id="2031" type="Node" x="384" y="640">
   <properties>
    <property name="tactical" value="sentry"/>
   </properties>
   <polygon points="0,0 32,0 32,32 0,32"/>
  </object>
  <object id="2305" type="Node" x="384" y="944">
   <polygon points="0,0 32,0 32,32 0,32"/>
  </object>
  <object id="2304" type="Node" x="384" y="576">
   <properties>
    <property name="tactical" value="sentry"/>
   </properties>
   <polygon points="0,0 32,0 32,32 0,32"/>
  </object>
  <object id="2100" type="Node" x="384" y="944">
   <properties>
    <property name="tactical" value="sentry"/>
   </properties>
   <polygon points="0,0 32,0 32,-32 0,-32"/>
  </object>
  <object id="2020" type="Node" x="928" y="640">
   <polygon points="0,0 32,0 32,32 0,32"/>
  </object>
  <object id="2108" type="Node" x="928" y="608">
   <polygon points="0,0 32,0 32,-32 0,-32"/>
  </object>
  <object id="2030" type="Node" x="480" y="640">
   <polygon points="0,0 32,0 32,32 0,32"/>
  </object>
  <object id="2101" type="Node" x="480" y="944">
   <polygon points="0,0 32,0 32,-32 0,-32"/>
  </object>
  <object id="2024" type="Node" x="1024" y="640">
   <polygon points="0,0 32,0 32,32 0,32"/>
  </object>
  <object id="2293" type="Node" x="1056" y="640">
   <properties>
    <property name="tactical" value="cover"/>
   </properties>
   <polygon points="0,0 32,0 32,32 0,32"/>
  </object>
  <object id="2107" type="Node" x="1024" y="608">
   <properties>
    <property name="tactical" value="sentry"/>
   </properties>
   <polygon points="0,0 32,0 32,-32 0,-32"/>
  </object>
  <object id="2034" type="Node" x="576" y="640">
   <properties>
    <property name="tactical" value="cover"/>
   </properties>
   <polygon points="0,0 32,0 32,32 0,32"/>
  </object>
  <object id="2102" type="Node" x="576" y="944">
   <properties>
    <property name="tactical" value="cover"/>
   </properties>
   <polygon points="0,0 32,0 32,-32 0,-32"/>
  </object>
  <object id="2106" type="Node" x="1056" y="608">
   <properties>
    <property name="tactical" value="cover"/>
   </properties>
   <polygon points="0,0 32,0 32,-48 16,-48 0,-32"/>
  </object>
  <object id="2035" type="Node" x="192" y="640">
   <properties>
    <property name="tactical" value="cover"/>
   </properties>
   <polygon points="0,0 32,0 32,32 0,32"/>
  </object>
  <object id="2098" type="Node" x="192" y="944">
   <properties>
    <property name="tactical" value="cover"/>
   </properties>
   <polygon points="0,0 32,0 32,-32 0,-32"/>
  </object>
  <object id="2036" type="Node" x="656" y="768">
   <properties>
    <property name="tactical" value="sentry"/>
   </properties>
   <polygon points="0,0 32,0 32,48 0,48"/>
  </object>
  <object id="2037" type="Node" x="688" y="768">
   <polygon points="0,0 32,0 48,16 48,32 32,48 0,48"/>
  </object>
  <object id="2060" type="Node" x="672" y="720">
   <polygon points="0,0 16,-16 48,-16 64,0 64,16 48,32 16,32 0,16"/>
  </object>
  <object id="2071" type="Node" x="672" y="864">
   <polygon points="0,0 16,16 48,16 64,0 64,-16 48,-32 16,-32 0,-16"/>
  </object>
  <object id="2061" type="Node" x="672" y="720">
   <polygon points="0,0 -16,-16 -16,-32 0,-48 16,-32 16,-16"/>
  </object>
  <object id="2062" type="Node" x="736" y="640">
   <polygon points="0,0 0,32 -16,48 -48,48 -64,32 -32,0"/>
  </object>
  <object id="2063" type="Node" x="656" y="688">
   <properties>
    <property name="tactical" value="cover"/>
   </properties>
   <polygon points="0,0 0,-48 48,-48"/>
  </object>
  <object id="2064" type="Node" x="656" y="704">
   <polygon points="0,0 0,64 32,64 32,48 16,32 16,16"/>
  </object>
  <object id="2069" type="Node" x="656" y="880">
   <polygon points="0,0 0,-64 32,-64 32,-48 16,-32 16,-16"/>
  </object>
  <object id="2076" type="Node" x="1024" y="896">
   <properties>
    <property name="tactical" value="cover"/>
   </properties>
   <polygon points="0,0 32,0 32,32 0,32"/>
  </object>
  <object id="2077" type="Node" x="1008" y="896">
   <polygon points="0,0 0,-16 16,-32 48,-32 64,-16 64,0"/>
  </object>
  <object id="2078" type="Node" x="1056" y="896">
   <properties>
    <property name="tactical" value="cover"/>
   </properties>
   <polygon points="0,0 0,32 32,32 32,-16 16,-16 16,0"/>
  </object>
  <object id="2079" type="Node" x="912" y="896">
   <polygon points="0,0 0,-16 16,-32 48,-32 64,-16 64,0"/>
  </object>
  <object id="2082" type="Node" x="816" y="896">
   <polygon points="0,0 0,-16 16,-32 48,-32 64,-16 64,0"/>
  </object>
  <object id="2084" type="Node" x="720" y="896">
   <polygon points="0,0 0,-16 16,-32 48,-32 64,-16 64,0"/>
  </object>
  <object id="2080" type="Node" x="928" y="896">
   <properties>
    <property name="tactical" value="cover"/>
   </properties>
   <polygon points="0,0 32,0 32,32 0,32"/>
  </object>
  <object id="2081" type="Node" x="832" y="896">
   <properties>
    <property name="tactical" value="cover"/>
   </properties>
   <polygon points="0,0 32,0 32,32 0,32"/>
  </object>
  <object id="2606" type="Node" x="736" y="896">
   <properties>
    <property name="tactical" value="cover"/>
   </properties>
   <polygon points="0,0 32,0 32,32 0,32"/>
  </object>
  <object id="2607" type="Node" x="656" y="896">
   <properties>
    <property name="tactical" value="cover"/>
   </properties>
   <polygon points="0,0 32,0 32,32 0,32"/>
  </object>
  <object id="2085" type="Node" x="688" y="896">
   <polygon points="0,0 0,32 48,32 48,0"/>
  </object>
  <object id="2093" type="Node" x="512" y="576">
   <properties>
    <property name="tactical" value="cover"/>
   </properties>
   <polygon points="0,0 16,-16 48,-16 48,32 0,32"/>
  </object>
  <object id="2111" type="Node" x="688" y="560">
   <properties>
    <property name="tactical" value="cover"/>
   </properties>
   <polygon points="0,0 0,48 48,48 48,16 32,0 0,0"/>
  </object>
  <object id="2118" type="Node" x="336" y="144">
   <polygon points="0,0 -16,16 -16,48 0,64 32,64 48,48 48,16 32,0"/>
  </object>
  <object id="2119" type="Node" x="288" y="160">
   <polygon points="0,0 -16,-16 -48,-16 -64,0 -64,32 -48,48 -16,48 0,32"/>
  </object>
  <object id="2120" type="Node" x="608" y="160">
   <polygon points="0,0 0,32 16,48 48,48 64,32 64,0 48,-16 16,-16"/>
  </object>
  <object id="2121" type="Node" x="512" y="160">
   <polygon points="0,0 16,-16 48,-16 64,0 64,32 48,48 16,48 0,32"/>
  </object>
  <object id="2122" type="Node" x="768" y="160">
   <polygon points="0,0 0,32 16,48 48,48 64,32 64,0 48,-16 16,-16"/>
  </object>
  <object id="2123" type="Node" x="864" y="160">
   <polygon points="0,0 0,32 16,48 48,48 64,32 64,0 48,-16 16,-16"/>
  </object>
  <object id="2124" type="Node" x="960" y="160">
   <polygon points="0,0 16,-16 48,-16 64,0 64,32 48,48 16,48 0,32"/>
  </object>
  <object id="2125" type="Node" x="912" y="16">
   <polygon points="0,0 64,0 48,16 48,32 64,48 0,48 16,32 16,16"/>
  </object>
  <object id="2126" type="Node" x="704" y="32">
   <polygon points="0,0 16,-16 32,0 32,16 16,32 0,16"/>
  </object>
  <object id="2130" type="Node" x="1056" y="672">
   <polygon points="0,0 0,48 32,48 32,0"/>
  </object>
  <object id="2131" type="Node" x="1056" y="720">
   <polygon points="0,0 0,16 16,32 32,32 32,0"/>
  </object>
  <object id="2221" type="Node" x="560" y="496">
   <polygon points="0,0 64,0 64,48 0,48 16,32 16,16"/>
  </object>
  <object id="2222" type="Node" x="624" y="496">
   <polygon points="0,0 64,0 48,16 48,32 64,48 0,48"/>
  </object>
  <object id="2240" type="Node" x="704" y="160">
   <polygon points="0,0 0,32 16,48 32,32 32,0 16,-16"/>
  </object>
  <object id="2241" type="Node" x="1072" y="208">
   <properties>
    <property name="tactical" value="cover"/>
   </properties>
   <polygon points="0,0 -16,-16 -16,-48 0,-64 16,-64 16,0"/>
  </object>
  <object id="2242" type="Node" x="432" y="208">
   <properties>
    <property name="tactical" value="cover"/>
   </properties>
   <polygon points="0,0 -16,-16 -16,-48 0,-64 16,-64 16,0"/>
  </object>
  <object id="2243" type="Node" x="1072" y="832">
   <properties>
    <property name="tactical" value="cover"/>
   </properties>
   <polygon points="0,0 0,-16 -16,-32 -16,-48 0,-64 0,-80 16,-80 16,0"/>
  </object>
  <object id="2246" type="Node" x="720" y="224">
   <polygon points="0,0 64,0 64,32 48,32 32,48 16,32 0,32"/>
  </object>
  <object id="2254" type="Node" x="816" y="224">
   <polygon points="0,0 64,0 64,32 48,32 32,48 16,32 0,32"/>
  </object>
  <object id="2258" type="Node" x="912" y="224">
   <polygon points="0,0 64,0 64,32 48,32 32,48 16,32 0,32"/>
  </object>
  <object id="2262" type="Node" x="1008" y="224">
   <polygon points="0,0 64,0 64,32 48,32 32,48 16,32 0,32"/>
  </object>
  <object id="2247" type="Node" x="720" y="304">
   <polygon points="0,0 0,32 64,32 64,0 48,0 32,-16 16,0"/>
  </object>
  <object id="2251" type="Node" x="816" y="304">
   <polygon points="0,0 0,32 64,32 64,0 48,0 32,-16 16,0"/>
  </object>
  <object id="2255" type="Node" x="912" y="304">
   <polygon points="0,0 0,32 64,32 64,0 48,0 32,-16 16,0"/>
  </object>
  <object id="2259" type="Node" x="1008" y="304">
   <properties>
    <property name="tactical" value="cover"/>
   </properties>
   <polygon points="0,0 0,32 64,32 64,0 48,0 32,-16 16,0"/>
  </object>
  <object id="2269" type="Node" x="560" y="224">
   <polygon points="0,0 64,0 64,16 48,16 32,32 16,16 0,16"/>
  </object>
  <object id="2287" type="Node" x="368" y="224">
   <polygon points="0,0 64,0 64,16 48,16 32,32 16,16 0,16"/>
  </object>
  <object id="2319" type="Node" x="368" y="976">
   <polygon points="0,0 64,0 64,16 48,16 32,32 16,16 0,16"/>
  </object>
  <object id="2274" type="Node" x="624" y="352">
   <properties>
    <property name="tactical" value="cover"/>
   </properties>
   <polygon points="0,0 0,-32 -16,-32 -32,-16 -32,0"/>
  </object>
  <object id="2281" type="Node" x="432" y="352">
   <polygon points="0,0 0,-32 -16,-32 -32,-16 -32,0"/>
  </object>
  <object id="2313" type="Node" x="432" y="1104">
   <properties>
    <property name="tactical" value="cover"/>
   </properties>
   <polygon points="0,0 0,-32 -16,-32 -32,-16 -32,0"/>
  </object>
  <object id="2342" type="Node" x="112" y="1248">
   <polygon points="0,0 0,-32 -16,-32 -32,-16 -32,0"/>
  </object>
  <object id="2335" type="Node" x="112" y="1040">
   <polygon points="0,0 0,32 -16,32 -32,16 -32,0"/>
  </object>
  <object id="2275" type="Node" x="560" y="320">
   <polygon points="0,0 0,32 32,32 32,16 16,0"/>
  </object>
  <object id="2282" type="Node" x="368" y="320">
   <properties>
    <property name="tactical" value="cover"/>
   </properties>
   <polygon points="0,0 0,32 32,32 32,16 16,0"/>
  </object>
  <object id="2314" type="Node" x="368" y="1072">
   <polygon points="0,0 0,32 32,32 32,16 16,0"/>
  </object>
  <object id="2343" type="Node" x="48" y="1216">
   <properties>
    <property name="tactical" value="cover"/>
   </properties>
   <polygon points="0,0 0,32 32,32 32,16 16,0"/>
  </object>
  <object id="2336" type="Node" x="48" y="1072">
   <properties>
    <property name="tactical" value="cover"/>
   </properties>
   <polygon points="0,0 0,-32 32,-32 32,-16 16,0"/>
  </object>
  <object id="2276" type="Node" x="480" y="320">
   <properties>
    <property name="tactical" value="narrow"/>
   </properties>
   <polygon points="0,0 16,-16 32,0 16,16"/>
  </object>
  <object id="2322" type="Node" x="288" y="1072">
   <properties>
    <property name="tactical" value="narrow"/>
   </properties>
   <polygon points="0,0 16,-16 32,0 16,16"/>
  </object>
  <object id="2356" type="Node" x="288" y="1216">
   <properties>
    <property name="tactical" value="narrow"/>
   </properties>
   <polygon points="0,0 16,-16 32,0 16,16"/>
  </object>
  <object id="2363" type="Node" x="416" y="1216">
   <properties>
    <property name="tactical" value="narrow"/>
   </properties>
   <polygon points="0,0 16,-16 32,0 16,16"/>
  </object>
  <object id="2327" type="Node" x="160" y="1072">
   <properties>
    <property name="tactical" value="narrow"/>
   </properties>
   <polygon points="0,0 16,-16 32,0 16,16"/>
  </object>
  <object id="2355" type="Node" x="160" y="1216">
   <properties>
    <property name="tactical" value="narrow"/>
   </properties>
   <polygon points="0,0 16,-16 32,0 16,16"/>
  </object>
  <object id="2277" type="Node" x="496" y="288">
   <polygon points="0,0 64,0 64,32 16,32 0,16"/>
  </object>
  <object id="2324" type="Node" x="304" y="1040">
   <polygon points="0,0 64,0 64,32 16,32 0,16"/>
  </object>
  <object id="2278" type="Node" x="496" y="336">
   <polygon points="0,0 0,16 64,16 64,-16 16,-16"/>
  </object>
  <object id="2321" type="Node" x="304" y="1088">
   <polygon points="0,0 0,16 64,16 64,-16 16,-16"/>
  </object>
  <object id="2279" type="Node" x="496" y="336">
   <polygon points="0,0 -16,-16 -64,-16 -64,16 0,16"/>
  </object>
  <object id="2326" type="Node" x="176" y="1088">
   <polygon points="0,0 -16,-16 -64,-16 -64,16 0,16"/>
  </object>
  <object id="2352" type="Node" x="176" y="1232">
   <polygon points="0,0 -16,-16 -64,-16 -64,16 0,16"/>
  </object>
  <object id="2280" type="Node" x="496" y="304">
   <polygon points="0,0 0,-16 -64,-16 -64,16 -16,16"/>
  </object>
  <object id="2328" type="Node" x="176" y="1056">
   <polygon points="0,0 0,-16 -64,-16 -64,16 -16,16"/>
  </object>
  <object id="2357" type="Node" x="176" y="1200">
   <polygon points="0,0 0,-16 -64,-16 -64,16 -16,16"/>
  </object>
  <object id="2288" type="Node" x="560" y="288">
   <polygon points="0,0 16,0 32,-16 32,48 16,32 0,32"/>
  </object>
  <object id="2289" type="Node" x="368" y="288">
   <polygon points="0,0 16,0 32,-16 32,48 16,32 0,32"/>
  </object>
  <object id="2316" type="Node" x="368" y="1040">
   <polygon points="0,0 16,0 32,-16 32,48 16,32 0,32"/>
  </object>
  <object id="2344" type="Node" x="48" y="1184">
   <polygon points="0,0 16,0 32,-16 32,48 16,32 0,32"/>
  </object>
  <object id="2337" type="Node" x="48" y="1104">
   <polygon points="0,0 16,0 32,16 32,-48 16,-32 0,-32"/>
  </object>
  <object id="2291" type="Node" x="432" y="288">
   <polygon points="0,0 -16,0 -32,-16 -32,48 -16,32 0,32"/>
  </object>
  <object id="2315" type="Node" x="432" y="1040">
   <polygon points="0,0 -16,0 -32,-16 -32,48 -16,32 0,32"/>
  </object>
  <object id="2345" type="Node" x="112" y="1184">
   <polygon points="0,0 -16,0 -32,-16 -32,48 -16,32 0,32"/>
  </object>
  <object id="2338" type="Node" x="112" y="1104">
   <polygon points="0,0 -16,0 -32,16 -32,-48 -16,-32 0,-32"/>
  </object>
  <object id="2292" type="Node" x="624" y="288">
   <polygon points="0,0 -16,0 -32,-16 -32,48 -16,32 0,32"/>
  </object>
  <object id="2300" type="Node" x="624" y="768">
   <properties>
    <property name="tactical" value="sentry"/>
   </properties>
   <polygon points="0,0 0,48 -16,32 -48,32 -48,16 -16,16"/>
  </object>
  <object id="2367" type="Node" x="176" y="768">
   <properties>
    <property name="tactical" value="sentry"/>
   </properties>
   <polygon points="0,0 0,48 16,32 48,32 48,16 16,16"/>
  </object>
  <object id="2301" type="Node" x="624" y="768">
   <polygon points="0,0 32,0 32,48 0,48"/>
  </object>
  <object id="2303" type="Node" x="656" y="896">
   <polygon points="0,0 0,-16 16,-32 32,-16 32,0"/>
  </object>
  <object id="2330" type="Node" x="224" y="1072">
   <properties>
    <property name="tactical" value="narrow"/>
   </properties>
   <polygon points="0,0 16,-16 32,0 16,16"/>
  </object>
  <object id="2354" type="Node" x="224" y="1216">
   <properties>
    <property name="tactical" value="narrow"/>
   </properties>
   <polygon points="0,0 16,-16 32,0 16,16"/>
  </object>
  <object id="2364" type="Node" x="352" y="1216">
   <properties>
    <property name="tactical" value="narrow"/>
   </properties>
   <polygon points="0,0 16,-16 32,0 16,16"/>
  </object>
  <object id="2331" type="Node" x="240" y="1040">
   <polygon points="0,0 0,16 16,32 48,32 64,16 64,0"/>
  </object>
  <object id="2359" type="Node" x="240" y="1184">
   <polygon points="0,0 0,16 16,32 48,32 64,16 64,0"/>
  </object>
  <object id="2365" type="Node" x="368" y="1184">
   <polygon points="0,0 0,16 16,32 48,32 64,16 64,0"/>
  </object>
  <object id="2334" type="Node" x="240" y="1104">
   <polygon points="0,0 0,-16 16,-32 48,-32 64,-16 64,0"/>
  </object>
  <object id="2350" type="Node" x="240" y="1248">
   <polygon points="0,0 0,-16 16,-32 48,-32 64,-16 64,0"/>
  </object>
  <object id="2361" type="Node" x="368" y="1248">
   <polygon points="0,0 0,-16 16,-32 48,-32 64,-16 64,0"/>
  </object>
  <object id="2332" type="Node" x="176" y="1040">
   <polygon points="0,0 0,16 16,32 48,32 64,16 64,0"/>
  </object>
  <object id="2358" type="Node" x="176" y="1184">
   <polygon points="0,0 0,16 16,32 48,32 64,16 64,0"/>
  </object>
  <object id="2366" type="Node" x="304" y="1184">
   <polygon points="0,0 0,16 16,32 48,32 64,16 64,0"/>
  </object>
  <object id="2333" type="Node" x="176" y="1104">
   <polygon points="0,0 0,-16 16,-32 48,-32 64,-16 64,0"/>
  </object>
  <object id="2351" type="Node" x="176" y="1248">
   <polygon points="0,0 0,-16 16,-32 48,-32 64,-16 64,0"/>
  </object>
  <object id="2362" type="Node" x="304" y="1248">
   <polygon points="0,0 0,-16 16,-32 48,-32 64,-16 64,0"/>
  </object>
  <object id="2348" type="Node" x="112" y="1184">
   <properties>
    <property name="tactical" value="narrow"/>
   </properties>
   <polygon points="0,0 0,-80 -16,-80 -32,-64 -32,-16 -16,0"/>
  </object>
  <object id="2349" type="Node" x="80" y="1168">
   <properties>
    <property name="tactical" value="narrow"/>
   </properties>
   <polygon points="0,0 0,-48 -16,-64 -32,-64 -32,16 -16,16"/>
  </object>
  <object id="2396" type="Node" x="128" y="768">
   <polygon points="0,0 48,0 48,48 0,48"/>
  </object>
  <object id="2419" type="Node" x="64" y="768">
   <properties>
    <property name="tactical" value="narrow"/>
   </properties>
   <polygon points="0,0 16,-16 32,0 16,16"/>
  </object>
  <object id="2420" type="Node" x="64" y="768">
   <polygon points="0,0 16,-16 16,-64 0,-80 -32,-80 -32,0"/>
  </object>
  <object id="2421" type="Node" x="80" y="704">
   <polygon points="0,0 16,-16 48,-16 48,64 16,64 0,48"/>
  </object>
  <object id="2422" type="Node" x="64" y="688">
   <properties>
    <property name="tactical" value="narrow"/>
   </properties>
   <polygon points="0,0 16,-16 32,0 16,16"/>
  </object>
  <object id="2432" type="Node" x="80" y="784">
   <polygon points="0,0 0,32 48,32 48,-16 16,-16"/>
  </object>
  <object id="2433" type="Node" x="80" y="784">
   <properties>
    <property name="tactical" value="cover"/>
   </properties>
   <polygon points="0,0 -16,-16 -48,-16 -48,32 0,32"/>
  </object>
  <object id="2449" type="Node" x="80" y="672">
   <polygon points="0,0 0,-64 48,-64 48,16 16,16"/>
  </object>
  <object id="2450" type="Node" x="80" y="672">
   <polygon points="0,0 0,-64 -48,-64 -48,16 -16,16"/>
  </object>
  <object id="2466" type="Node" x="32" y="400">
   <polygon points="0,0 0,48 16,32 48,32 48,16 16,16"/>
  </object>
  <object id="2467" type="Node" x="32" y="464">
   <polygon points="0,0 0,48 16,32 48,32 48,16 16,16"/>
  </object>
  <object id="2468" type="Node" x="32" y="528">
   <polygon points="0,0 0,48 16,32 48,32 48,16 16,16"/>
  </object>
  <object id="2469" type="Node" x="432" y="1184">
   <polygon points="0,0 32,0 32,32 16,32 0,16"/>
  </object>
  <object id="2470" type="Node" x="432" y="1232">
   <polygon points="0,0 0,16 32,16 32,-16 16,-16"/>
  </object>
  <object id="2575" type="Node" x="464" y="1216">
   <polygon points="0,0 0,32 48,32 32,16 32,0"/>
  </object>
  <object id="2576" type="Node" x="1040" y="1216">
   <properties>
    <property name="tactical" value="cover"/>
   </properties>
   <polygon points="0,0 0,16 -16,32 32,32 32,0"/>
  </object>
  <object id="2577" type="Node" x="944" y="1216">
   <polygon points="0,0 0,16 -16,32 48,32 32,16 32,0"/>
  </object>
  <object id="2579" type="Node" x="752" y="1216">
   <polygon points="0,0 0,16 -16,32 48,32 32,16 32,0"/>
  </object>
  <object id="2581" type="Node" x="560" y="1216">
   <polygon points="0,0 0,16 -16,32 48,32 32,16 32,0"/>
  </object>
  <object id="2589" type="Node" x="176" y="80">
   <polygon points="0,0 0,48 16,32 48,32 48,16 16,16"/>
  </object>
  <object id="2598" type="Node" x="80" y="80">
   <polygon points="0,0 -16,-16 -16,-48 32,-48 32,0"/>
  </object>
  <object id="2599" type="Node" x="64" y="176">
   <polygon points="0,0 48,0 48,-48 16,-48 0,-32"/>
  </object>
  <object id="2600" type="Node" x="64" y="32">
   <polygon points="0,0 -48,0 -48,48 -16,48 0,32"/>
  </object>
  <object id="2601" type="Node" x="16" y="176">
   <polygon points="0,0 48,0 48,-32 32,-48 0,-48"/>
  </object>
  <object id="2602" type="Node" x="16" y="80">
   <polygon points="0,0 0,48 32,48 32,0"/>
  </object>
  <object id="2603" type="Node" x="80" y="80">
   <polygon points="0,0 0,48 32,48 32,0"/>
  </object>
  <object id="2604" type="Node" x="48" y="128">
   <polygon points="0,0 0,-48 16,-64 32,-48 32,0 16,16"/>
  </object>
  <object id="2605" type="Node" x="112" y="80">
   <polygon points="0,0 64,0 64,48 0,48"/>
  </object>
 </objectgroup>
</map>
